;FLAVOR:Marlin
;TIME:1439
;Filament used: 0.45816m
;Layer height: 0.2
;MINX:86.461
;MINY:91.821
;MINZ:0.2
;MAXX:133.363
;MAXY:128.725
;MAXZ:24.4
;TARGET_MACHINE.NAME:Creality Ender-3 V3 SE
;Generated with Cura_SteamEngine 5.8.0
M82 ;absolute extrusion mode
M220 S100 ;Reset Feedrate
M221 S100 ;Reset Flowrate

G28 ;Home

M420 S1; Use saved mesh leveling data

G92 E0 ;Reset Extruder
G1 Z2.0 F3000 ;Move Z Axis up
G1 X-3 Y20 Z0.28 F5000.0 ;Move to start position
M190 S60 ; Set bed temperature and wait
M109 S200 ; Set hotend temperature and wait
G1 X-3 Y100.0 Z0.28 F1500.0 E15 ;Draw the first line
G1 X-2 Y100.0 Z0.28 F5000.0 ;Move to side a little
G1 X-2 Y20 Z0.28 F1500.0 E30 ;Draw the second line
G92 E0 ;Reset Extruder
G1 E-1.0000 F1800 ;Retract a bit
G1 Z2.0 F3000 ;Move Z Axis up
G1 E0.0000 F1800 

G92 E0
G92 E0
G1 F2400 E-0.8
;LAYER_COUNT:122
;LAYER:0
M107
G0 F9000 X90.652 Y98.518 Z0.2
;TYPE:SKIRT
G1 F2400 E0
G1 F1800 X91.666 Y97.71 E0.04312
G1 X92.03 Y97.456 E0.05789
G1 X92.868 Y96.927 E0.09085
G1 X93.695 Y96.499 E0.12182
G1 X94.281 Y96.246 E0.14305
G1 X94.697 Y96.082 E0.15792
G1 X95.435 Y95.821 E0.18396
G1 X96.286 Y95.555 E0.21361
G1 X98.726 Y94.752 E0.29905
G1 X101.086 Y93.899 E0.38251
G1 X102.39 Y93.388 E0.42909
G1 X102.554 Y93.332 E0.43486
G1 X103.672 Y92.892 E0.47482
G1 X104.647 Y92.562 E0.50905
G1 X105.251 Y92.391 E0.52993
G1 X106.199 Y92.167 E0.56233
G1 X107.168 Y92.028 E0.59489
G1 X108.215 Y91.976 E0.62976
G1 X110.224 Y91.979 E0.69658
G1 X112.8 Y91.947 E0.78226
G1 X115.892 Y91.821 E0.88519
G1 X116.866 Y91.827 E0.91758
G1 X117.835 Y91.919 E0.94996
G1 X118.793 Y92.097 E0.98237
G1 X119.73 Y92.358 E1.01472
G1 X120.576 Y92.674 E1.04475
G1 X121.588 Y93.162 E1.08212
G1 X123.029 Y93.95 E1.13675
G1 X126.434 Y95.714 E1.26429
G1 X126.854 Y95.942 E1.28019
G1 X127.658 Y96.427 E1.31142
G1 X128.472 Y97.023 E1.34497
G1 X129.203 Y97.666 E1.37736
G1 X129.828 Y98.318 E1.40739
G1 X130.263 Y98.842 E1.43005
G1 X130.529 Y99.185 E1.44448
G1 X131.1 Y99.994 E1.47742
G1 X131.555 Y100.774 E1.50745
G1 X131.985 Y101.687 E1.54102
G1 X132.235 Y102.309 E1.56331
G1 X132.524 Y103.11 E1.59164
G1 X132.829 Y104.038 E1.62413
G1 X133.09 Y104.977 E1.65654
G1 X133.266 Y105.935 E1.68894
G1 X133.358 Y106.905 E1.72134
G1 X133.363 Y107.884 E1.75391
G1 X133.273 Y108.923 E1.78859
G1 X133.161 Y109.718 E1.8153
G1 X132.981 Y110.675 E1.84768
G1 X132.718 Y111.611 E1.88002
G1 X132.397 Y112.465 E1.91037
G1 X131.851 Y113.751 E1.95683
G1 X130.871 Y116.159 E2.0433
G1 X129.974 Y118.551 E2.12827
G1 X129.678 Y119.38 E2.15755
G1 X129.309 Y120.281 E2.18993
G1 X128.897 Y121.084 E2.21995
G1 X128.339 Y121.968 E2.25472
G1 X127.767 Y122.715 E2.28601
G1 X127.017 Y123.525 E2.32273
G1 X125.999 Y124.517 E2.37
G1 X125.282 Y125.155 E2.40193
G1 X124.404 Y125.866 E2.4395
G1 X123.729 Y126.398 E2.46809
G1 X122.996 Y126.925 E2.49811
G1 X122.096 Y127.457 E2.53289
G1 X121.215 Y127.875 E2.56532
G1 X120.302 Y128.213 E2.5977
G1 X119.364 Y128.469 E2.63004
G1 X118.475 Y128.631 E2.6601
G1 X117.434 Y128.725 E2.69486
G1 X116.46 Y128.725 E2.72726
G1 X115.49 Y128.639 E2.75964
G1 X114.531 Y128.467 E2.79205
G1 X113.591 Y128.213 E2.82444
G1 X112.712 Y127.889 E2.85559
G1 X111.865 Y127.494 E2.88668
G1 X109.118 Y126.063 E2.9897
G1 X106.854 Y124.969 E3.07333
G1 X104.565 Y123.942 E3.15677
G1 X102.272 Y122.99 E3.23935
G1 X99.865 Y122.071 E3.32504
G1 X97.523 Y121.251 E3.40758
G1 X96.716 Y120.994 E3.43575
G1 X94.935 Y120.397 E3.49822
G1 X94.024 Y120.043 E3.53073
G1 X93.12 Y119.595 E3.56428
G1 X92.827 Y119.431 E3.57545
G1 X92 Y118.919 E3.6078
G1 X91.226 Y118.34 E3.63995
G1 X90.494 Y117.698 E3.67234
G1 X89.784 Y116.999 E3.70548
G1 X89.154 Y116.257 E3.73785
G1 X88.608 Y115.487 E3.76925
G1 X87.974 Y114.371 E3.81194
G1 X87.724 Y113.862 E3.8308
G1 X87.324 Y112.938 E3.86428
G1 X86.927 Y111.672 E3.90841
G1 X86.767 Y110.976 E3.93217
G1 X86.672 Y110.495 E3.94847
G1 X86.527 Y109.539 E3.98063
G1 X86.468 Y108.711 E4.00824
G1 X86.461 Y107.808 E4.03828
G1 X86.493 Y107.232 E4.05747
G1 X86.553 Y106.54 E4.08057
G1 X86.682 Y105.578 E4.11285
G1 X86.877 Y104.696 E4.14289
G1 X87.192 Y103.701 E4.17761
G1 X87.337 Y103.309 E4.19151
G1 X87.687 Y102.477 E4.22153
G1 X88.172 Y101.563 E4.25594
G1 X88.529 Y100.997 E4.2782
G1 X88.728 Y100.703 E4.29001
G1 X89.286 Y99.952 E4.32113
G1 X89.903 Y99.247 E4.35229
G1 X90.652 Y98.518 E4.38705
G0 F9000 X90.931 Y98.805
G1 F1800 X91.896 Y98.038 E4.42805
G1 X92.244 Y97.794 E4.44219
G1 X93.052 Y97.282 E4.474
G1 X93.854 Y96.866 E4.50405
G1 X94.428 Y96.618 E4.52485
G1 X94.831 Y96.459 E4.53926
G1 X95.554 Y96.203 E4.56477
G1 X96.405 Y95.937 E4.59442
G1 X98.851 Y95.132 E4.68007
G1 X101.222 Y94.275 E4.76392
G1 X102.52 Y93.766 E4.8103
G1 X102.698 Y93.705 E4.81655
G1 X103.8 Y93.271 E4.85595
G1 X104.756 Y92.947 E4.88952
G1 X105.343 Y92.78 E4.90982
G1 X106.256 Y92.563 E4.94103
G1 X107.188 Y92.428 E4.97235
G1 X108.235 Y92.376 E5.00722
G1 X110.228 Y92.379 E5.07351
G1 X112.816 Y92.347 E5.15959
G1 X115.89 Y92.221 E5.26192
G1 X116.829 Y92.225 E5.29315
G1 X117.763 Y92.312 E5.32435
G1 X118.686 Y92.482 E5.35556
G1 X119.59 Y92.733 E5.38677
G1 X120.436 Y93.049 E5.41681
G1 X121.396 Y93.513 E5.45227
G1 X122.837 Y94.301 E5.5069
G1 X126.243 Y96.065 E5.63447
G1 X126.647 Y96.285 E5.64977
G1 X127.451 Y96.77 E5.681
G1 X128.208 Y97.324 E5.7122
G1 X128.914 Y97.943 E5.74343
G1 X129.539 Y98.595 E5.77347
G1 X129.947 Y99.088 E5.79475
G1 X130.202 Y99.416 E5.80857
G1 X130.754 Y100.196 E5.84035
G1 X131.209 Y100.976 E5.87039
G1 X131.614 Y101.836 E5.90201
G1 X131.859 Y102.445 E5.92384
G1 X132.144 Y103.235 E5.95177
G1 X132.444 Y104.146 E5.98367
G1 X132.697 Y105.05 E6.01489
G1 X132.868 Y105.973 E6.04612
G1 X132.958 Y106.908 E6.07736
G1 X132.964 Y107.849 E6.10866
G1 X132.874 Y108.888 E6.14334
G1 X132.768 Y109.645 E6.16877
G1 X132.596 Y110.567 E6.19996
G1 X132.344 Y111.47 E6.23114
G1 X132.029 Y112.309 E6.26095
G1 X131.483 Y113.595 E6.30742
G1 X130.496 Y116.019 E6.39447
G1 X129.599 Y118.411 E6.47944
G1 X129.308 Y119.229 E6.50831
G1 X128.953 Y120.098 E6.53954
G1 X128.541 Y120.901 E6.56955
G1 X128.021 Y121.725 E6.60196
G1 X127.473 Y122.443 E6.632
G1 X126.723 Y123.253 E6.66872
G1 X125.733 Y124.218 E6.7147
G1 X125.03 Y124.844 E6.74601
G1 X124.156 Y125.552 E6.78342
G1 X123.495 Y126.073 E6.81141
G1 X122.762 Y126.6 E6.84144
G1 X121.924 Y127.096 E6.87383
G1 X121.076 Y127.5 E6.90507
G1 X120.196 Y127.827 E6.93629
G1 X119.292 Y128.075 E6.96747
G1 X118.403 Y128.237 E6.99753
G1 X117.433 Y128.325 E7.02992
G1 X116.495 Y128.327 E7.06112
G1 X115.56 Y128.245 E7.09234
G1 X114.635 Y128.081 E7.12358
G1 X113.729 Y127.837 E7.15479
G1 X112.881 Y127.526 E7.18483
G1 X112.05 Y127.139 E7.21532
G1 X109.303 Y125.708 E7.31834
G1 X107.018 Y124.604 E7.40275
G1 X104.729 Y123.577 E7.48619
G1 X102.415 Y122.616 E7.56953
G1 X100.008 Y121.697 E7.65522
G1 X97.655 Y120.873 E7.73814
G1 X96.843 Y120.615 E7.76648
G1 X95.079 Y120.024 E7.82836
G1 X94.202 Y119.685 E7.85963
G1 X93.314 Y119.245 E7.89259
G1 X93.037 Y119.091 E7.90313
G1 X92.239 Y118.598 E7.93433
G1 X91.49 Y118.039 E7.96541
G1 X90.758 Y117.397 E7.9978
G1 X90.089 Y116.74 E8.02899
G1 X89.48 Y116.025 E8.06022
G1 X88.956 Y115.289 E8.09027
G1 X88.333 Y114.194 E8.13218
G1 X88.091 Y113.702 E8.15041
G1 X87.706 Y112.818 E8.18248
G1 X87.309 Y111.552 E8.22661
G1 X87.159 Y110.898 E8.24893
G1 X87.067 Y110.435 E8.26463
G1 X86.926 Y109.51 E8.29575
G1 X86.868 Y108.708 E8.32249
G1 X86.861 Y107.805 E8.35253
G1 X86.892 Y107.266 E8.37048
G1 X86.95 Y106.593 E8.39295
G1 X87.073 Y105.664 E8.42412
G1 X87.268 Y104.782 E8.45416
G1 X87.567 Y103.84 E8.48703
G1 X87.706 Y103.464 E8.50037
G1 X88.056 Y102.632 E8.53039
G1 X88.51 Y101.776 E8.56262
G1 X88.86 Y101.221 E8.58444
G1 X89.049 Y100.942 E8.59565
G1 X89.607 Y100.191 E8.62677
G1 X90.182 Y99.534 E8.65581
G1 X90.931 Y98.805 E8.69057
G0 F9000 X91.18 Y99.118
G1 F1800 X92.126 Y98.366 E8.73076
G1 X92.474 Y98.122 E8.7449
G1 X93.236 Y97.637 E8.77494
G1 X94.038 Y97.221 E8.80499
G1 X94.575 Y96.99 E8.82443
G1 X94.964 Y96.836 E8.83835
G1 X95.673 Y96.585 E8.86337
G1 X96.524 Y96.319 E8.89302
G1 X98.976 Y95.512 E8.97888
G1 X101.358 Y94.651 E9.06312
G1 X102.65 Y94.144 E9.10928
G1 X102.842 Y94.078 E9.11603
G1 X103.928 Y93.65 E9.15486
G1 X104.866 Y93.332 E9.1878
G1 X105.436 Y93.169 E9.20752
G1 X106.314 Y92.959 E9.23755
G1 X107.208 Y92.828 E9.2676
G1 X108.255 Y92.776 E9.30246
G1 X110.232 Y92.779 E9.36822
G1 X112.832 Y92.747 E9.4547
G1 X115.889 Y92.621 E9.55646
G1 X116.792 Y92.623 E9.5865
G1 X117.691 Y92.706 E9.61653
G1 X118.58 Y92.868 E9.64658
G1 X119.45 Y93.108 E9.6766
G1 X120.296 Y93.424 E9.70664
G1 X121.204 Y93.864 E9.7402
G1 X122.645 Y94.652 E9.79482
G1 X126.052 Y96.417 E9.92244
G1 X126.441 Y96.628 E9.93716
G1 X127.215 Y97.093 E9.96719
G1 X127.945 Y97.625 E9.99724
G1 X128.625 Y98.22 E10.02729
G1 X129.25 Y98.872 E10.05733
G1 X129.631 Y99.334 E10.07725
G1 X129.886 Y99.662 E10.09106
G1 X130.408 Y100.398 E10.12108
G1 X130.863 Y101.178 E10.15111
G1 X131.243 Y101.986 E10.18081
G1 X131.483 Y102.581 E10.20215
G1 X131.764 Y103.36 E10.22969
G1 X132.059 Y104.255 E10.26103
G1 X132.304 Y105.124 E10.29106
G1 X132.47 Y106.012 E10.32111
G1 X132.558 Y106.911 E10.35115
G1 X132.565 Y107.814 E10.38119
G1 X132.475 Y108.853 E10.41587
G1 X132.375 Y109.572 E10.44002
G1 X132.211 Y110.46 E10.47005
G1 X131.969 Y111.33 E10.50009
G1 X131.661 Y112.153 E10.52932
G1 X131.115 Y113.439 E10.57578
G1 X130.126 Y115.868 E10.66301
G1 X129.222 Y118.277 E10.74859
G1 X128.937 Y119.078 E10.77687
G1 X128.597 Y119.915 E10.80692
G1 X128.185 Y120.718 E10.83694
G1 X127.703 Y121.482 E10.86698
G1 X127.155 Y122.2 E10.89702
G1 X126.444 Y122.967 E10.93181
G1 X125.467 Y123.919 E10.97718
G1 X124.778 Y124.533 E11.00787
G1 X123.908 Y125.238 E11.04512
G1 X123.261 Y125.748 E11.07252
G1 X122.528 Y126.275 E11.10255
G1 X121.751 Y126.735 E11.13258
G1 X120.936 Y127.125 E11.16263
G1 X120.09 Y127.441 E11.19267
G1 X119.22 Y127.681 E11.22268
G1 X118.331 Y127.843 E11.25274
G1 X117.432 Y127.925 E11.28276
G1 X116.529 Y127.928 E11.3128
G1 X115.629 Y127.851 E11.34284
G1 X114.739 Y127.695 E11.37289
G1 X113.867 Y127.461 E11.40292
G1 X113.019 Y127.15 E11.43296
G1 X112.235 Y126.784 E11.46174
G1 X109.488 Y125.353 E11.56476
G1 X107.182 Y124.239 E11.64994
G1 X104.893 Y123.212 E11.73338
G1 X102.558 Y122.242 E11.81748
G1 X100.151 Y121.323 E11.90317
G1 X97.787 Y120.495 E11.98648
G1 X96.97 Y120.236 E12.01499
G1 X95.223 Y119.651 E12.07627
G1 X94.38 Y119.327 E12.10631
G1 X93.508 Y118.895 E12.13867
G1 X93.247 Y118.75 E12.1486
G1 X92.478 Y118.277 E12.17863
G1 X91.754 Y117.738 E12.20865
G1 X91.038 Y117.111 E12.24031
G1 X90.393 Y116.48 E12.27032
G1 X89.806 Y115.793 E12.30037
G1 X89.282 Y115.057 E12.33042
G1 X88.692 Y114.017 E12.37019
G1 X88.45 Y113.525 E12.38843
G1 X88.088 Y112.698 E12.41845
G1 X87.699 Y111.462 E12.46155
G1 X87.551 Y110.82 E12.48346
G1 X87.462 Y110.374 E12.49859
G1 X87.325 Y109.481 E12.52864
G1 X87.268 Y108.705 E12.55452
G1 X87.261 Y107.802 E12.58455
G1 X87.291 Y107.3 E12.60128
G1 X87.347 Y106.645 E12.62314
G1 X87.464 Y105.75 E12.65317
G1 X87.659 Y104.868 E12.68321
G1 X87.942 Y103.979 E12.71424
G1 X88.075 Y103.619 E12.727
G1 X88.425 Y102.787 E12.75703
G1 X88.848 Y101.989 E12.78707
G1 X89.191 Y101.445 E12.80846
G1 X89.37 Y101.18 E12.81909
G1 X89.908 Y100.454 E12.84915
G1 X90.461 Y99.82 E12.87713
G1 X91.18 Y99.118 E12.91055
G1 F2400 E12.11055
G0 F9000 X98.142 Y106.827
G1 F2400 E12.91055
G1 F1800 X98.413 Y106.644 E12.92143
G1 X98.744 Y106.514 E12.93325
G1 X99.097 Y106.492 E12.94502
G1 X99.642 Y106.523 E12.96317
G1 X99.651 Y106.523 E12.96347
G1 X99.912 Y106.525 E12.97215
G1 X99.93 Y106.524 E12.97275
G1 X100.563 Y106.474 E12.99387
G1 X100.574 Y106.473 E12.99424
G1 X100.919 Y106.426 E13.00582
G1 X100.928 Y106.425 E13.00612
G1 X102.641 Y106.113 E13.06403
G1 X102.691 Y106.094 E13.06581
G1 X103.81 Y106.118 E13.10304
G1 X103.918 Y106.084 E13.10681
G1 X103.935 Y106.091 E13.10742
G1 X104.06 Y106.1 E13.11159
G1 X104.097 Y106.081 E13.11297
G1 X104.192 Y106.092 E13.11615
G1 X104.227 Y106.093 E13.11731
G1 X104.493 Y106.078 E13.12618
G1 X104.524 Y106.073 E13.12722
G1 X104.587 Y106.059 E13.12937
G1 X105.123 Y106.22 E13.14798
G1 X105.532 Y106.451 E13.1636
G1 X105.654 Y106.476 E13.16775
G1 X105.767 Y106.423 E13.1719
G1 X105.827 Y106.313 E13.17606
G1 X105.795 Y106.164 E13.18113
G1 X105.746 Y106.092 E13.18403
G1 X105.741 Y106.085 E13.18432
G1 X105.526 Y105.799 E13.19622
G1 X105.384 Y105.72 E13.20162
G1 X105.333 Y105.715 E13.20333
G1 X105.601 Y104.966 E13.22978
G1 X105.768 Y104.744 E13.23902
G1 X106.726 Y103.8 E13.28376
G1 X106.957 Y103.665 E13.29266
G1 X107.75 Y103.313 E13.32151
G1 X108.316 Y103.154 E13.34107
G1 X109.502 Y103.181 E13.38052
G1 X109.721 Y103.224 E13.38795
G1 X109.97 Y103.333 E13.39699
G1 X110.333 Y103.597 E13.41192
G1 X110.694 Y104.063 E13.43152
G1 X110.797 Y104.132 E13.43565
G1 X110.878 Y104.138 E13.43835
G1 X111.718 Y104.026 E13.46653
G1 X111.831 Y103.972 E13.4707
G1 X111.844 Y103.946 E13.47166
G1 X112.505 Y103.773 E13.49439
G1 X112.512 Y103.768 E13.49468
G1 X113.259 Y103.541 E13.52064
G1 X113.361 Y103.469 E13.5248
G1 X113.374 Y103.435 E13.52601
G1 X113.908 Y103.34 E13.54405
G1 X114.018 Y103.281 E13.5482
G1 X114.033 Y103.243 E13.54956
G1 X115.582 Y103.079 E13.60136
G1 X116.161 Y103.147 E13.62075
G1 X116.283 Y103.122 E13.6249
G1 X116.334 Y103.08 E13.62709
G1 X116.341 Y103.072 E13.62745
G1 X116.503 Y103.191 E13.63413
G1 X116.526 Y103.206 E13.63505
G1 X116.96 Y103.442 E13.65148
G1 X117.052 Y103.458 E13.65458
G1 X117.384 Y103.68 E13.66787
G1 X117.454 Y103.7 E13.67029
G1 X117.899 Y103.987 E13.6879
G1 X117.925 Y103.994 E13.6888
G1 X118.544 Y104.353 E13.7126
G1 X118.552 Y104.358 E13.71291
G1 X119.238 Y104.714 E13.73862
G1 X119.246 Y104.718 E13.73891
G1 X120.34 Y105.223 E13.77899
G1 X120.348 Y105.226 E13.77927
G1 X120.894 Y105.45 E13.7989
G1 X121.434 Y105.734 E13.8192
G1 X121.448 Y105.762 E13.82024
G1 X121.478 Y105.806 E13.82201
G1 X121.667 Y106.021 E13.83153
G1 X121.889 Y106.598 E13.85209
G1 X121.888 Y106.65 E13.85382
G1 X122.134 Y107.407 E13.8803
G1 X122.146 Y107.437 E13.88137
G1 X122.184 Y107.511 E13.88414
G1 X122.086 Y108.119 E13.90462
G1 X122.008 Y108.277 E13.91048
G1 X121.364 Y108.788 E13.93782
G1 X121.266 Y108.831 E13.94138
G1 X121.233 Y108.849 E13.94263
G1 X120.378 Y109.437 E13.97715
G1 X120.186 Y109.54 E13.98439
G1 X119.447 Y109.626 E14.00914
G1 X119.438 Y109.628 E14.00945
G1 X119.145 Y109.675 E14.01932
G1 X119.133 Y109.677 E14.01972
G1 X118.761 Y109.761 E14.0324
G1 X118.745 Y109.765 E14.03295
G1 X118.393 Y109.875 E14.04522
G1 X118.363 Y109.887 E14.04629
G1 X117.991 Y110.074 E14.06014
G1 X117.972 Y110.085 E14.06087
G1 X117.698 Y110.262 E14.07172
G1 X117.674 Y110.281 E14.07274
G1 X117.362 Y110.559 E14.08664
G1 X117.339 Y110.583 E14.08774
G1 X117.089 Y110.894 E14.10102
G1 X117.067 Y110.927 E14.10233
G1 X116.883 Y111.284 E14.11569
G1 X116.869 Y111.32 E14.11698
G1 X116.766 Y111.674 E14.12924
G1 X116.758 Y111.728 E14.13106
G1 X116.756 Y111.915 E14.13728
G1 X116.734 Y111.935 E14.13826
G1 X116.709 Y112.054 E14.14231
G1 X116.759 Y112.545 E14.15872
G1 X116.767 Y112.585 E14.16008
G1 X116.887 Y112.967 E14.1734
G1 X116.903 Y113.004 E14.17474
G1 X117.095 Y113.351 E14.18793
G1 X117.117 Y113.383 E14.18922
G1 X117.376 Y113.69 E14.20258
G1 X117.4 Y113.714 E14.20371
G1 X118.176 Y114.372 E14.23755
G1 X118.715 Y115.322 E14.27388
G1 X118.748 Y115.365 E14.27568
G1 X119.041 Y115.657 E14.28944
G1 X118.464 Y116.161 E14.31492
G1 X118.45 Y116.175 E14.31558
G1 X118.232 Y116.408 E14.32619
G1 X118.191 Y116.473 E14.32875
G1 X118.186 Y116.486 E14.32921
G1 X118 Y116.575 E14.33607
G1 X117.987 Y116.582 E14.33656
G1 X117.728 Y116.731 E14.3465
G1 X117.675 Y116.775 E14.34879
G1 X117.643 Y116.814 E14.35047
G1 X117.561 Y116.816 E14.35319
G1 X117.464 Y116.844 E14.35655
G1 X116.98 Y117.133 E14.3753
G1 X116.892 Y117.247 E14.38009
G1 X116.851 Y117.383 E14.38482
G1 X115.782 Y116.381 E14.43355
G1 X115.677 Y116.332 E14.4374
G1 X115.565 Y116.174 E14.44384
G1 X115.542 Y116.147 E14.44502
G1 X115.515 Y116.12 E14.44629
G1 X115.279 Y115.787 E14.45987
G1 X115.252 Y115.733 E14.46188
G1 X114.871 Y115.19 E14.48394
G1 X114.856 Y115.171 E14.48474
G1 X114.63 Y114.919 E14.496
G1 X114.522 Y114.857 E14.50014
