;FLAVOR:Marlin
;TIME:4072
;Filament used: 1.61777m
;Layer height: 0.2
;MINX:74.717
;MINY:91.461
;MINZ:0.2
;MAXX:145.906
;MAXY:128.672
;MAXZ:75.2
;TARGET_MACHINE.NAME:Creality Ender-3 V3 SE
;Generated with Cura_SteamEngine 5.8.0
M82 ;absolute extrusion mode
M220 S100 ;Reset Feedrate
M221 S100 ;Reset Flowrate

G28 ;Home

M420 S1; Use saved mesh leveling data

G92 E0 ;Reset Extruder
G1 Z2.0 F3000 ;Move Z Axis up
G1 X-3 Y20 Z0.28 F5000.0 ;Move to start position
M190 S60 ; Set bed temperature and wait
M109 S200 ; Set hotend temperature and wait
G1 X-3 Y100.0 Z0.28 F1500.0 E15 ;Draw the first line
G1 X-2 Y100.0 Z0.28 F5000.0 ;Move to side a little
G1 X-2 Y20 Z0.28 F1500.0 E30 ;Draw the second line
G92 E0 ;Reset Extruder
G1 E-1.0000 F1800 ;Retract a bit
G1 Z2.0 F3000 ;Move Z Axis up
G1 E0.0000 F1800 

G92 E0
G92 E0
G1 F2400 E-0.8
;LAYER_COUNT:376
;LAYER:0
M107
G0 F9000 X80.783 Y101.242 Z0.2
;TYPE:SKIRT
G1 F2400 E0
G1 F1800 X81.602 Y100.591 E0.0348
G1 X82.571 Y99.907 E0.07425
G1 X83.754 Y99.165 E0.12069
G1 X84.761 Y98.501 E0.16081
G1 X85.109 Y98.292 E0.17431
G1 X86.021 Y97.701 E0.21046
G1 X86.894 Y97.192 E0.24407
G1 X87.749 Y96.79 E0.27549
G1 X89.022 Y96.346 E0.32033
G1 X91.623 Y95.625 E0.41011
G1 X93.985 Y94.941 E0.49189
G1 X94.906 Y94.689 E0.52365
G1 X96.987 Y94.154 E0.59512
G1 X99.654 Y93.542 E0.68613
G1 X102.135 Y92.925 E0.77116
G1 X104.749 Y92.201 E0.86138
G1 X105.628 Y91.984 E0.89149
G1 X106.54 Y91.809 E0.92238
G1 X107.046 Y91.746 E0.93934
G1 X107.794 Y91.671 E0.96434
G1 X108.642 Y91.615 E0.9926
G1 X109.303 Y91.604 E1.01459
G1 X112.407 Y91.645 E1.11784
G1 X115.695 Y91.574 E1.22723
G1 X115.87 Y91.579 E1.23305
G1 X117.872 Y91.519 E1.29967
G1 X121.646 Y91.461 E1.4252
G1 X122.368 Y91.476 E1.44922
G1 X124.18 Y91.571 E1.50957
G1 X124.411 Y91.574 E1.51726
G1 X125.849 Y91.662 E1.56517
G1 X126.432 Y91.713 E1.58464
G1 X128.332 Y91.933 E1.64826
G1 X128.991 Y92.032 E1.67042
G1 X130.538 Y92.314 E1.72272
G1 X131.725 Y92.552 E1.76299
G1 X132.204 Y92.659 E1.77931
G1 X132.784 Y92.805 E1.7992
G1 X133.942 Y93.13 E1.83921
G1 X134.866 Y93.438 E1.8716
G1 X135.758 Y93.825 E1.90394
G1 X136.607 Y94.286 E1.93607
G1 X137.221 Y94.683 E1.96039
G1 X138.376 Y95.491 E2.00728
G1 X138.58 Y95.625 E2.01539
G1 X138.893 Y95.853 E2.02827
G1 X139.653 Y96.464 E2.06071
G1 X140.353 Y97.138 E2.09303
G1 X140.949 Y97.817 E2.12308
G1 X141.723 Y98.906 E2.16751
G1 X143.186 Y101.257 E2.25961
G1 X143.572 Y101.857 E2.28334
G1 X144.057 Y102.696 E2.31557
G1 X144.41 Y103.438 E2.3429
G1 X144.745 Y104.223 E2.37129
G1 X145.017 Y104.897 E2.39546
G1 X145.34 Y105.816 E2.42786
G1 X145.574 Y106.73 E2.45924
G1 X145.756 Y107.899 E2.49859
G1 X145.854 Y108.891 E2.53175
G1 X145.906 Y109.864 E2.56416
G1 X145.871 Y110.837 E2.59654
G1 X145.749 Y111.803 E2.62892
G1 X145.543 Y112.754 E2.66129
G1 X145.254 Y113.684 E2.69368
G1 X144.891 Y114.57 E2.72552
G1 X144.68 Y115.001 E2.74148
G1 X144.11 Y116.104 E2.78278
G1 X143.627 Y116.944 E2.81501
G1 X143.165 Y117.616 E2.84213
G1 X142.527 Y118.421 E2.87629
G1 X141.907 Y119.077 E2.90632
G1 X141.124 Y119.77 E2.94109
G1 X140.348 Y120.341 E2.97314
G1 X139.786 Y120.693 E2.99519
G1 X139.446 Y120.892 E3.0083
G1 X138.584 Y121.344 E3.04067
G1 X137.684 Y121.717 E3.07307
G1 X136.766 Y122.007 E3.10509
G1 X136.125 Y122.16 E3.12701
G1 X134.335 Y122.554 E3.18797
G1 X134.123 Y122.592 E3.19514
G1 X132.607 Y122.915 E3.24669
G1 X131.55 Y123.112 E3.28245
G1 X130.634 Y123.27 E3.31337
G1 X129.219 Y123.559 E3.3614
G1 X127.028 Y124.023 E3.43589
G1 X124.775 Y124.559 E3.51292
G1 X121.943 Y125.273 E3.61006
G1 X118.024 Y126.103 E3.7433
G1 X114.727 Y126.846 E3.8557
G1 X110.081 Y127.716 E4.01292
G1 X109.429 Y127.816 E4.03486
G1 X108.176 Y127.967 E4.07683
G1 X107.761 Y128.008 E4.0907
G1 X106.3 Y128.181 E4.13964
G1 X104.446 Y128.375 E4.20164
G1 X103.712 Y128.431 E4.22612
G1 X102.255 Y128.515 E4.27466
G1 X99.326 Y128.657 E4.37219
G1 X98.74 Y128.672 E4.39169
G1 X98.267 Y128.668 E4.40742
G1 X95.921 Y128.608 E4.48548
G1 X94.587 Y128.554 E4.52988
G1 X93.675 Y128.477 E4.56032
G1 X92.361 Y128.304 E4.6044
G1 X91.29 Y128.128 E4.6405
G1 X90.58 Y127.988 E4.66457
G1 X89.313 Y127.695 E4.70783
G1 X88.024 Y127.35 E4.75221
G1 X87.532 Y127.205 E4.76927
G1 X86.611 Y126.9 E4.80154
G1 X85.861 Y126.625 E4.8281
G1 X84.718 Y126.161 E4.86913
G1 X83.564 Y125.641 E4.91123
G1 X82.81 Y125.276 E4.9391
G1 X82.015 Y124.844 E4.96919
G1 X81.315 Y124.424 E4.99634
G1 X80.537 Y123.908 E5.02739
G1 X79.957 Y123.456 E5.05185
G1 X79.51 Y123.08 E5.07128
G1 X78.8 Y122.429 E5.10331
G1 X78.349 Y121.947 E5.12527
G1 X77.942 Y121.484 E5.14577
G1 X77.337 Y120.732 E5.17787
G1 X76.944 Y120.159 E5.20098
G1 X76.579 Y119.571 E5.224
G1 X76.302 Y119.093 E5.24238
G1 X75.884 Y118.293 E5.2724
G1 X75.484 Y117.328 E5.30714
G1 X75.195 Y116.399 E5.3395
G1 X74.998 Y115.499 E5.37014
G1 X74.876 Y114.801 E5.39371
G1 X74.754 Y113.836 E5.42606
G1 X74.717 Y112.868 E5.45828
G1 X74.753 Y112.047 E5.48562
G1 X74.799 Y111.495 E5.50404
G1 X74.92 Y110.556 E5.53553
G1 X75.254 Y109.159 E5.5833
G1 X75.484 Y108.418 E5.60911
G1 X75.728 Y107.702 E5.63427
G1 X76.061 Y106.863 E5.66429
G1 X76.533 Y105.93 E5.69907
G1 X77.049 Y105.106 E5.7314
G1 X77.609 Y104.361 E5.7624
G1 X78.023 Y103.886 E5.78336
G1 X78.681 Y103.177 E5.81553
G1 X79.042 Y102.804 E5.8328
G1 X79.616 Y102.255 E5.85921
G1 X80.354 Y101.603 E5.89197
G1 X80.783 Y101.242 E5.91061
G0 F9000 X81.032 Y101.555
G1 F1800 X81.833 Y100.918 E5.94465
G1 X82.784 Y100.246 E5.98338
G1 X83.967 Y99.504 E6.02983
G1 X84.967 Y98.844 E6.06968
G1 X85.327 Y98.628 E6.08364
G1 X86.239 Y98.037 E6.11979
G1 X87.065 Y97.554 E6.15161
G1 X87.881 Y97.168 E6.18164
G1 X89.154 Y96.724 E6.22648
G1 X91.734 Y96.009 E6.31553
G1 X94.091 Y95.327 E6.39714
G1 X95.006 Y95.076 E6.42869
G1 X97.076 Y94.544 E6.49978
G1 X99.743 Y93.932 E6.59079
G1 X102.232 Y93.313 E6.6761
G1 X104.845 Y92.589 E6.76628
G1 X105.704 Y92.377 E6.79571
G1 X106.59 Y92.206 E6.82572
G1 X107.086 Y92.144 E6.84234
G1 X107.82 Y92.07 E6.86688
G1 X108.649 Y92.015 E6.89451
G1 X109.298 Y92.004 E6.9161
G1 X112.411 Y92.045 E7.01965
G1 X115.684 Y91.974 E7.12854
G1 X115.871 Y91.979 E7.13476
G1 X117.878 Y91.919 E7.20154
G1 X121.638 Y91.861 E7.32661
G1 X122.347 Y91.875 E7.3502
G1 X124.176 Y91.971 E7.41112
G1 X124.387 Y91.973 E7.41813
G1 X125.814 Y92.06 E7.46569
G1 X126.386 Y92.11 E7.48478
G1 X128.273 Y92.329 E7.54797
G1 X128.919 Y92.426 E7.56969
G1 X130.459 Y92.706 E7.62175
G1 X131.638 Y92.943 E7.66175
G1 X132.107 Y93.047 E7.67773
G1 X132.676 Y93.19 E7.69724
G1 X133.816 Y93.51 E7.73662
G1 X134.707 Y93.805 E7.76784
G1 X135.568 Y94.177 E7.79904
G1 X136.39 Y94.622 E7.83013
G1 X136.992 Y95.011 E7.85396
G1 X138.147 Y95.819 E7.90085
G1 X138.345 Y95.948 E7.90871
G1 X138.643 Y96.165 E7.92097
G1 X139.376 Y96.753 E7.95222
G1 X140.052 Y97.402 E7.98339
G1 X140.648 Y98.081 E8.01344
G1 X141.383 Y99.117 E8.05569
G1 X142.85 Y101.474 E8.14803
G1 X143.226 Y102.058 E8.17113
G1 X143.696 Y102.868 E8.20228
G1 X144.042 Y103.595 E8.22906
G1 X144.374 Y104.373 E8.25719
G1 X144.64 Y105.03 E8.28076
G1 X144.952 Y105.915 E8.31198
G1 X145.186 Y106.829 E8.34336
G1 X145.358 Y107.939 E8.38072
G1 X145.455 Y108.913 E8.41327
G1 X145.506 Y109.85 E8.44448
G1 X145.474 Y110.788 E8.4757
G1 X145.358 Y111.719 E8.5069
G1 X145.161 Y112.636 E8.5381
G1 X144.884 Y113.533 E8.56932
G1 X144.532 Y114.394 E8.60026
G1 X144.325 Y114.817 E8.61592
G1 X143.763 Y115.905 E8.65665
G1 X143.297 Y116.717 E8.68779
G1 X142.835 Y117.389 E8.71491
G1 X142.236 Y118.146 E8.74702
G1 X141.616 Y118.802 E8.77704
G1 X140.887 Y119.448 E8.80944
G1 X140.136 Y120.002 E8.84048
G1 X139.584 Y120.348 E8.86215
G1 X139.26 Y120.538 E8.87464
G1 X138.43 Y120.975 E8.90584
G1 X137.563 Y121.336 E8.93707
G1 X136.673 Y121.618 E8.96813
G1 X136.039 Y121.769 E8.9898
G1 X134.264 Y122.16 E9.05026
G1 X134.052 Y122.198 E9.05742
G1 X132.524 Y122.524 E9.10938
G1 X131.482 Y122.718 E9.14464
G1 X130.554 Y122.878 E9.17596
G1 X129.139 Y123.167 E9.22399
G1 X126.935 Y123.634 E9.29893
G1 X124.677 Y124.171 E9.37612
G1 X121.854 Y124.883 E9.47295
G1 X121.446 Y124.976 E9.48687
G1 X117.936 Y125.713 E9.60616
G1 X114.653 Y126.453 E9.71809
G1 X110.02 Y127.321 E9.87487
G1 X109.381 Y127.419 E9.89637
G1 X108.137 Y127.569 E9.93805
G1 X107.722 Y127.61 E9.95192
G1 X106.271 Y127.782 E10.00052
G1 X106.067 Y127.797 E10.00732
G1 X104.415 Y127.976 E10.06259
G1 X103.689 Y128.032 E10.0868
G1 X102.236 Y128.115 E10.13521
G1 X99.316 Y128.257 E10.23244
G1 X98.743 Y128.272 E10.25151
G1 X98.277 Y128.268 E10.26701
G1 X95.937 Y128.208 E10.34486
G1 X94.62 Y128.155 E10.3887
G1 X93.727 Y128.08 E10.41851
G1 X92.426 Y127.909 E10.46215
G1 X91.355 Y127.733 E10.49825
G1 X90.67 Y127.598 E10.52147
G1 X89.417 Y127.309 E10.56424
G1 X88.137 Y126.966 E10.60832
G1 X87.658 Y126.825 E10.62492
G1 X86.749 Y126.524 E10.65677
G1 X86.009 Y126.253 E10.68298
G1 X85.248 Y125.951 E10.71021
G1 X84.882 Y125.796 E10.72343
G1 X83.738 Y125.281 E10.76516
G1 X83.001 Y124.925 E10.79238
G1 X82.221 Y124.501 E10.82191
G1 X81.536 Y124.09 E10.84848
G1 X80.783 Y123.592 E10.87851
G1 X80.203 Y123.14 E10.90297
G1 X79.78 Y122.785 E10.92133
G1 X79.092 Y122.155 E10.95236
G1 X78.649 Y121.683 E10.97389
G1 X78.253 Y121.233 E10.99383
G1 X77.667 Y120.506 E11.02488
G1 X77.284 Y119.948 E11.0474
G1 X76.925 Y119.37 E11.07003
G1 X76.657 Y118.908 E11.08779
G1 X76.239 Y118.108 E11.11781
G1 X75.866 Y117.209 E11.15018
G1 X75.586 Y116.313 E11.18141
G1 X75.392 Y115.43 E11.21148
G1 X75.273 Y114.75 E11.23444
G1 X75.154 Y113.82 E11.26562
G1 X75.117 Y112.885 E11.29674
G1 X75.152 Y112.08 E11.32354
G1 X75.196 Y111.546 E11.34136
G1 X75.317 Y110.607 E11.37285
G1 X75.636 Y109.278 E11.41831
G1 X75.863 Y108.547 E11.44377
G1 X76.1 Y107.85 E11.46826
G1 X76.433 Y107.011 E11.49828
G1 X76.872 Y106.142 E11.53066
G1 X77.369 Y105.346 E11.56187
G1 X77.929 Y104.601 E11.59287
G1 X78.316 Y104.158 E11.61244
G1 X78.969 Y103.455 E11.64435
G1 X79.319 Y103.093 E11.6611
G1 X79.881 Y102.555 E11.68697
G1 X80.611 Y101.909 E11.71939
G1 X81.032 Y101.555 E11.73769
G0 F9000 X81.281 Y101.868
G1 F1800 X82.064 Y101.245 E11.77097
G1 X82.997 Y100.585 E11.80898
G1 X84.18 Y99.843 E11.85543
G1 X85.173 Y99.187 E11.89501
G1 X85.545 Y98.964 E11.90943
G1 X86.457 Y98.373 E11.94558
G1 X87.236 Y97.916 E11.97562
G1 X88.052 Y97.53 E12.00564
G1 X89.285 Y97.102 E12.04905
G1 X91.845 Y96.393 E12.1374
G1 X94.197 Y95.713 E12.21884
G1 X95.105 Y95.463 E12.25016
G1 X97.165 Y94.934 E12.3209
G1 X99.832 Y94.322 E12.41191
G1 X102.329 Y93.701 E12.49749
G1 X104.941 Y92.977 E12.58764
G1 X105.78 Y92.77 E12.61638
G1 X106.666 Y92.599 E12.64639
G1 X107.126 Y92.542 E12.66181
G1 X107.847 Y92.469 E12.68591
G1 X108.656 Y92.415 E12.71288
G1 X109.293 Y92.404 E12.73407
G1 X112.415 Y92.445 E12.83792
G1 X115.674 Y92.374 E12.94634
G1 X115.873 Y92.379 E12.95296
G1 X117.884 Y92.319 E13.01988
G1 X121.631 Y92.261 E13.14452
G1 X122.326 Y92.274 E13.16764
G1 X124.174 Y92.371 E13.22919
G1 X124.363 Y92.372 E13.23547
G1 X125.779 Y92.458 E13.28266
G1 X126.34 Y92.507 E13.30139
G1 X128.214 Y92.725 E13.36414
G1 X128.848 Y92.82 E13.38546
G1 X130.38 Y93.098 E13.43724
G1 X131.552 Y93.334 E13.47701
G1 X132.01 Y93.435 E13.49261
G1 X132.568 Y93.575 E13.51174
G1 X133.691 Y93.89 E13.55053
G1 X134.549 Y94.172 E13.58057
G1 X135.378 Y94.529 E13.61059
G1 X136.173 Y94.958 E13.64064
G1 X136.763 Y95.339 E13.664
G1 X137.922 Y96.15 E13.71105
G1 X138.109 Y96.271 E13.71846
G1 X138.393 Y96.478 E13.73014
G1 X139.099 Y97.042 E13.7602
G1 X139.751 Y97.666 E13.79022
G1 X140.347 Y98.345 E13.82027
G1 X141.043 Y99.328 E13.86033
G1 X142.511 Y101.685 E13.95268
G1 X142.88 Y102.259 E13.97538
G1 X143.335 Y103.04 E14.00544
G1 X143.674 Y103.752 E14.03167
G1 X144.003 Y104.523 E14.05955
G1 X144.263 Y105.164 E14.08256
G1 X144.565 Y106.015 E14.11259
G1 X144.791 Y106.89 E14.14265
G1 X144.96 Y107.979 E14.1793
G1 X145.056 Y108.935 E14.21126
G1 X145.106 Y109.837 E14.2413
G1 X145.077 Y110.739 E14.27132
G1 X144.967 Y111.636 E14.30138
G1 X144.779 Y112.519 E14.33141
G1 X144.514 Y113.382 E14.36143
G1 X144.173 Y114.218 E14.39146
G1 X143.97 Y114.633 E14.40683
G1 X143.416 Y115.706 E14.44699
G1 X142.967 Y116.49 E14.47704
G1 X142.505 Y117.162 E14.50416
G1 X141.945 Y117.871 E14.53421
G1 X141.325 Y118.527 E14.56424
G1 X140.649 Y119.126 E14.59428
G1 X139.923 Y119.663 E14.62431
G1 X139.382 Y120.003 E14.64556
G1 X139.073 Y120.184 E14.65747
G1 X138.275 Y120.606 E14.6875
G1 X137.442 Y120.955 E14.71754
G1 X136.581 Y121.229 E14.74759
G1 X135.953 Y121.378 E14.76906
G1 X134.193 Y121.766 E14.829
G1 X133.981 Y121.804 E14.83616
G1 X132.44 Y122.133 E14.88857
G1 X131.414 Y122.324 E14.92328
G1 X130.474 Y122.486 E14.95501
G1 X129.059 Y122.775 E15.00304
G1 X126.842 Y123.245 E15.07842
G1 X124.579 Y123.783 E15.15579
G1 X121.765 Y124.493 E15.25231
G1 X121.364 Y124.585 E15.266
G1 X117.848 Y125.323 E15.38549
G1 X114.573 Y126.061 E15.49715
G1 X114.196 Y126.138 E15.50994
G1 X109.959 Y126.926 E15.65328
G1 X109.333 Y127.022 E15.67435
G1 X108.098 Y127.171 E15.71572
G1 X107.683 Y127.212 E15.72959
G1 X106.241 Y127.383 E15.77789
G1 X106.025 Y127.399 E15.78509
G1 X104.384 Y127.577 E15.83999
G1 X103.666 Y127.633 E15.86395
G1 X102.216 Y127.715 E15.91225
G1 X99.302 Y127.858 E16.00929
G1 X98.746 Y127.872 E16.02779
G1 X98.287 Y127.868 E16.04305
G1 X95.953 Y127.808 E16.12071
G1 X94.653 Y127.756 E16.16398
G1 X93.779 Y127.683 E16.19315
G1 X92.491 Y127.514 E16.23636
G1 X91.433 Y127.341 E16.27201
G1 X90.76 Y127.208 E16.29483
G1 X89.521 Y126.923 E16.33712
G1 X88.25 Y126.582 E16.38089
G1 X87.784 Y126.445 E16.39704
G1 X86.886 Y126.148 E16.4285
G1 X86.156 Y125.881 E16.45435
G1 X85.404 Y125.583 E16.48126
G1 X85.046 Y125.431 E16.49419
G1 X83.912 Y124.921 E16.53555
G1 X83.192 Y124.574 E16.56213
G1 X82.427 Y124.158 E16.59109
G1 X81.757 Y123.756 E16.61708
G1 X81.004 Y123.258 E16.64711
G1 X80.46 Y122.833 E16.67007
G1 X80.05 Y122.49 E16.68785
G1 X79.384 Y121.881 E16.71786
G1 X78.949 Y121.418 E16.73899
G1 X78.564 Y120.982 E16.75834
G1 X77.997 Y120.28 E16.78835
G1 X77.624 Y119.737 E16.81026
G1 X77.271 Y119.169 E16.83251
G1 X77.012 Y118.723 E16.84966
G1 X76.594 Y117.923 E16.87968
G1 X76.248 Y117.089 E16.90971
G1 X75.977 Y116.227 E16.93977
G1 X75.786 Y115.361 E16.96926
G1 X75.67 Y114.699 E16.99162
G1 X75.554 Y113.804 E17.02163
G1 X75.517 Y112.902 E17.05166
G1 X75.551 Y112.112 E17.07796
G1 X75.593 Y111.596 E17.09518
G1 X75.706 Y110.7 E17.12522
G1 X76.018 Y109.397 E17.16978
G1 X76.242 Y108.676 E17.19489
G1 X76.472 Y107.998 E17.2187
G1 X76.805 Y107.159 E17.24872
G1 X77.212 Y106.353 E17.27876
G1 X77.689 Y105.586 E17.3088
G1 X78.231 Y104.864 E17.33883
G1 X78.609 Y104.43 E17.35797
G1 X79.256 Y103.733 E17.3896
G1 X79.596 Y103.382 E17.40585
G1 X80.158 Y102.844 E17.43173
G1 X80.868 Y102.215 E17.46328
G1 X81.281 Y101.868 E17.48122
G1 F2400 E16.68122
G0 F9000 X88.439 Y109.463
G1 F2400 E17.48122
G1 F1800 X88.478 Y109.477 E17.4826
G1 X88.598 Y109.441 E17.48676
G1 X89.13 Y109.066 E17.50841
G1 X90.238 Y108.375 E17.55184
G1 X90.31 Y108.359 E17.5543
G1 X91.381 Y107.687 E17.59635
G1 X91.39 Y107.682 E17.59669
G1 X91.838 Y107.367 E17.61491
G1 X91.865 Y107.344 E17.61609
G1 X91.996 Y107.213 E17.62225
G1 X92.077 Y107.265 E17.62545
G1 X92.169 Y107.266 E17.62851
G1 X92.992 Y107.085 E17.65654
G1 X93.038 Y107.069 E17.65816
G1 X93.27 Y106.953 E17.66678
G1 X93.386 Y106.955 E17.67064
G1 X93.888 Y106.761 E17.68854
G1 X93.893 Y106.758 E17.68874
G1 X94.487 Y106.51 E17.71015
G1 X94.582 Y106.508 E17.71331
G1 X95.202 Y106.304 E17.73502
G1 X95.209 Y106.301 E17.73527
G1 X95.892 Y106.047 E17.75951
G1 X95.998 Y106.05 E17.76303
G1 X96.66 Y105.861 E17.78593
G1 X96.667 Y105.859 E17.78617
G1 X97.596 Y105.558 E17.81865
G1 X97.727 Y105.575 E17.82305
G1 X99.618 Y105.036 E17.88845
G1 X99.774 Y105.061 E17.8937
G1 X100.353 Y104.913 E17.91358
G1 X100.359 Y104.911 E17.91379
G1 X100.735 Y104.802 E17.92681
G1 X102.064 Y104.472 E17.97235
G1 X102.069 Y104.479 E17.97264
G1 X102.221 Y104.507 E17.97778
G1 X102.982 Y104.342 E18.00368
G1 X102.988 Y104.341 E18.00388
G1 X103.658 Y104.176 E18.02683
G1 X105.05 Y103.886 E18.07412
G1 X105.163 Y103.915 E18.078
G1 X105.5 Y103.884 E18.08926
G1 X105.516 Y103.882 E18.0898
G1 X106.224 Y103.761 E18.11369
G1 X106.334 Y103.703 E18.11782
G1 X106.381 Y103.624 E18.12088
