;FLAVOR:Marlin
;TIME:1865
;Filament used: 1.17932m
;Layer height: 0.2
;MINX:83.964
;MINY:84.535
;MINZ:0.2
;MAXX:136.03
;MAXY:136.652
;MAXZ:33.2
;TARGET_MACHINE.NAME:Creality Ender-3 V3 SE
;Generated with Cura_SteamEngine 5.8.0
M82 ;absolute extrusion mode
M220 S100 ;Reset Feedrate
M221 S100 ;Reset Flowrate

G28 ;Home

M420 S1; Use saved mesh leveling data

G92 E0 ;Reset Extruder
G1 Z2.0 F3000 ;Move Z Axis up
G1 X-3 Y20 Z0.28 F5000.0 ;Move to start position
M190 S60 ; Set bed temperature and wait
M109 S200 ; Set hotend temperature and wait
G1 X-3 Y100.0 Z0.28 F1500.0 E15 ;Draw the first line
G1 X-2 Y100.0 Z0.28 F5000.0 ;Move to side a little
G1 X-2 Y20 Z0.28 F1500.0 E30 ;Draw the second line
G92 E0 ;Reset Extruder
G1 E-1.0000 F1800 ;Retract a bit
G1 Z2.0 F3000 ;Move Z Axis up
G1 E0.0000 F1800 

G92 E0
G92 E0
G1 F2400 E-0.8
;LAYER_COUNT:166
;LAYER:0
M107
G0 F9000 X92.289 Y91.504 Z0.2
;TYPE:SKIRT
G1 F2400 E0
G1 F1800 X93.119 Y90.683 E0.03883
G1 X93.81 Y90.058 E0.06982
G1 X94.633 Y89.428 E0.10429
G1 X95.407 Y88.907 E0.13532
G1 X96.028 Y88.554 E0.15908
G1 X96.497 Y88.31 E0.17667
G1 X97.386 Y87.895 E0.2093
G1 X101.306 Y86.28 E0.35031
G1 X102.391 Y85.808 E0.38966
G1 X103.077 Y85.537 E0.41419
G1 X103.728 Y85.307 E0.43716
G1 X104.565 Y85.048 E0.4663
G1 X105.09 Y84.91 E0.48435
G1 X106.043 Y84.705 E0.51678
G1 X107.002 Y84.586 E0.54892
G1 X107.992 Y84.541 E0.58188
G1 X108.482 Y84.535 E0.59818
G1 X109.905 Y84.55 E0.64551
G1 X110.883 Y84.542 E0.67804
G1 X111.96 Y84.55 E0.71386
G1 X112.99 Y84.607 E0.74817
G1 X113.354 Y84.645 E0.76034
G1 X114.761 Y84.885 E0.80782
G1 X115.101 Y84.967 E0.81945
G1 X116.435 Y85.379 E0.86589
G1 X116.987 Y85.589 E0.88553
G1 X120.3 Y86.977 E1.005
G1 X122.148 Y87.704 E1.07105
G1 X122.686 Y87.932 E1.09048
G1 X123.441 Y88.279 E1.11812
G1 X124.106 Y88.62 E1.14298
G1 X124.883 Y89.08 E1.17301
G1 X125.921 Y89.841 E1.21582
G1 X126.299 Y90.155 E1.23216
G1 X126.999 Y90.79 E1.2636
G1 X129.77 Y93.54 E1.39344
G1 X130.574 Y94.424 E1.43319
G1 X131.218 Y95.279 E1.46879
G1 X131.731 Y96.1 E1.50099
G1 X132.002 Y96.581 E1.51935
G1 X132.554 Y97.718 E1.56139
G1 X133.992 Y101.21 E1.687
G1 X134.815 Y103.111 E1.75589
G1 X135.092 Y103.799 E1.78056
G1 X135.321 Y104.442 E1.80326
G1 X135.418 Y104.747 E1.81391
G1 X135.673 Y105.691 E1.84643
G1 X135.745 Y106.014 E1.85744
G1 X135.941 Y107.219 E1.89804
G1 X135.971 Y107.509 E1.90774
G1 X136.028 Y108.649 E1.9457
G1 X136.018 Y111.412 E2.0376
G1 X136.03 Y112.439 E2.07176
G1 X135.955 Y113.853 E2.11886
G1 X135.918 Y114.16 E2.12914
G1 X135.72 Y115.289 E2.16727
G1 X135.595 Y115.82 E2.18541
G1 X135.298 Y116.854 E2.22119
G1 X135.07 Y117.491 E2.2437
G1 X134.755 Y118.282 E2.27201
G1 X133.918 Y120.222 E2.34229
G1 X132.777 Y123.057 E2.44393
G1 X132.419 Y123.857 E2.47308
G1 X132.11 Y124.455 E2.49547
G1 X131.925 Y124.786 E2.50808
G1 X131.271 Y125.816 E2.54866
G1 X130.91 Y126.316 E2.56917
G1 X130.349 Y127.023 E2.59919
G1 X129.875 Y127.538 E2.62247
G1 X129.415 Y128.006 E2.6443
G1 X127.925 Y129.48 E2.71401
G1 X127.118 Y130.307 E2.75244
G1 X126.406 Y130.971 E2.78482
G1 X125.652 Y131.561 E2.81666
G1 X125.037 Y131.998 E2.84176
G1 X124.219 Y132.525 E2.87412
G1 X123.42 Y132.947 E2.90417
G1 X122.803 Y133.219 E2.9266
G1 X119.809 Y134.429 E3.03401
G1 X117.365 Y135.485 E3.12256
G1 X116.667 Y135.763 E3.14755
G1 X116.14 Y135.952 E3.16617
G1 X115.176 Y136.247 E3.1997
G1 X114.265 Y136.442 E3.23069
G1 X113.69 Y136.523 E3.25
G1 X113.155 Y136.584 E3.26791
G1 X111.769 Y136.652 E3.31406
G1 X110.974 Y136.639 E3.34051
G1 X109.575 Y136.645 E3.38704
G1 X108.408 Y136.633 E3.42586
G1 X107.227 Y136.59 E3.46516
G1 X106.254 Y136.504 E3.49765
G1 X105.237 Y136.319 E3.53203
G1 X104.811 Y136.219 E3.54659
G1 X103.616 Y135.866 E3.58803
G1 X102.826 Y135.562 E3.61618
G1 X101.252 Y134.894 E3.67305
G1 X99.219 Y134.058 E3.74617
G1 X97.681 Y133.444 E3.80125
G1 X96.718 Y133.021 E3.83623
G1 X95.845 Y132.577 E3.8688
G1 X94.868 Y131.956 E3.90731
G1 X94.482 Y131.679 E3.92311
G1 X93.506 Y130.891 E3.96483
G1 X92.847 Y130.273 E3.99488
G1 X90.625 Y128.025 E4.10001
G1 X90.204 Y127.612 E4.11962
G1 X89.567 Y126.929 E4.15069
G1 X89.122 Y126.375 E4.17432
G1 X88.847 Y126.006 E4.18963
G1 X88.318 Y125.228 E4.22092
G1 X87.766 Y124.226 E4.25897
G1 X87.545 Y123.768 E4.27588
G1 X87.24 Y123.076 E4.30104
G1 X86.563 Y121.377 E4.36187
G1 X85.104 Y117.949 E4.48578
G1 X84.809 Y117.206 E4.51237
G1 X84.5 Y116.292 E4.54446
G1 X84.286 Y115.451 E4.57332
G1 X84.097 Y114.451 E4.60717
G1 X84.002 Y113.55 E4.6373
G1 X83.964 Y112.503 E4.67215
G1 X83.978 Y111.285 E4.71266
G1 X83.975 Y108.634 E4.80084
G1 X84.014 Y107.731 E4.8309
G1 X84.103 Y106.986 E4.85585
G1 X84.191 Y106.417 E4.875
G1 X84.388 Y105.449 E4.90786
G1 X84.776 Y104.211 E4.95101
G1 X85.29 Y102.89 E4.99815
G1 X85.99 Y101.26 E5.05716
G1 X86.594 Y99.745 E5.1114
G1 X86.776 Y99.342 E5.12611
G1 X87.324 Y97.991 E5.1746
G1 X87.463 Y97.672 E5.18617
G1 X87.792 Y96.983 E5.21157
G1 X88.024 Y96.539 E5.22823
G1 X88.497 Y95.727 E5.25949
G1 X89.146 Y94.818 E5.29663
G1 X89.398 Y94.503 E5.31005
G1 X90.254 Y93.553 E5.35258
G1 X90.793 Y93.022 E5.37775
G1 X92.289 Y91.504 E5.44864
G0 F9000 X92.57 Y91.788
G1 F1800 X93.388 Y90.979 E5.4869
G1 X94.057 Y90.373 E5.51692
G1 X94.519 Y90.011 E5.53644
G1 X94.857 Y89.76 E5.55045
G1 X95.605 Y89.255 E5.58046
G1 X96.226 Y88.902 E5.60422
G1 X96.666 Y88.672 E5.62074
G1 X97.538 Y88.265 E5.65274
G1 X101.466 Y86.647 E5.79404
G1 X102.538 Y86.18 E5.83293
G1 X103.211 Y85.914 E5.857
G1 X103.846 Y85.689 E5.87941
G1 X104.667 Y85.435 E5.90799
G1 X105.175 Y85.301 E5.92546
G1 X106.093 Y85.102 E5.9567
G1 X107.02 Y84.986 E5.98778
G1 X107.997 Y84.941 E6.02031
G1 X108.478 Y84.935 E6.03631
G1 X109.904 Y84.95 E6.08374
G1 X110.88 Y84.942 E6.1162
G1 X111.938 Y84.949 E6.15139
G1 X112.948 Y85.005 E6.18504
G1 X113.312 Y85.043 E6.19721
G1 X114.667 Y85.274 E6.24293
G1 X115.007 Y85.356 E6.25456
G1 X116.293 Y85.753 E6.29932
G1 X116.832 Y85.958 E6.3185
G1 X120.145 Y87.346 E6.43797
G1 X121.992 Y88.072 E6.50398
G1 X122.519 Y88.295 E6.52301
G1 X123.259 Y88.635 E6.5501
G1 X123.902 Y88.964 E6.57412
G1 X124.679 Y89.424 E6.60415
G1 X125.666 Y90.149 E6.64489
G1 X126.03 Y90.451 E6.66062
G1 X126.717 Y91.074 E6.69146
G1 X129.474 Y93.809 E6.82063
G1 X130.254 Y94.665 E6.85915
G1 X130.898 Y95.52 E6.89475
G1 X131.383 Y96.297 E6.92521
G1 X131.642 Y96.756 E6.94274
G1 X132.194 Y97.893 E6.98478
G1 X133.625 Y101.369 E7.1098
G1 X134.444 Y103.26 E7.17835
G1 X134.715 Y103.934 E7.20251
G1 X134.94 Y104.564 E7.22476
G1 X135.032 Y104.852 E7.23481
G1 X135.283 Y105.778 E7.26672
G1 X135.35 Y106.078 E7.27695
G1 X135.543 Y107.261 E7.31681
G1 X135.571 Y107.529 E7.32578
G1 X135.628 Y108.669 E7.36374
G1 X135.618 Y111.411 E7.45494
G1 X135.63 Y112.444 E7.4893
G1 X135.558 Y113.806 E7.53466
G1 X135.524 Y114.091 E7.54421
G1 X135.326 Y115.22 E7.58233
G1 X135.211 Y115.71 E7.59907
G1 X134.921 Y116.719 E7.63399
G1 X134.698 Y117.343 E7.65603
G1 X134.388 Y118.124 E7.68398
G1 X133.551 Y120.064 E7.75425
G1 X132.412 Y122.894 E7.85572
G1 X132.063 Y123.674 E7.88414
G1 X131.761 Y124.26 E7.90606
G1 X131.587 Y124.572 E7.91795
G1 X130.933 Y125.602 E7.95853
G1 X130.597 Y126.067 E7.97761
G1 X130.036 Y126.774 E8.00763
G1 X129.59 Y127.258 E8.02952
G1 X129.134 Y127.722 E8.05115
G1 X127.638 Y129.201 E8.12112
G1 X126.845 Y130.015 E8.15892
G1 X126.159 Y130.656 E8.19015
G1 X125.42 Y131.235 E8.22137
G1 X124.82 Y131.662 E8.24587
G1 X124.032 Y132.171 E8.27707
G1 X123.233 Y132.593 E8.30712
G1 X122.653 Y132.848 E8.32819
G1 X119.659 Y134.058 E8.4356
G1 X117.217 Y135.113 E8.52408
G1 X116.532 Y135.386 E8.5486
G1 X116.005 Y135.575 E8.56722
G1 X115.092 Y135.856 E8.599
G1 X114.181 Y136.051 E8.62998
G1 X113.645 Y136.126 E8.64798
G1 X113.135 Y136.184 E8.66506
G1 X111.776 Y136.252 E8.71031
G1 X110.979 Y136.239 E8.73682
G1 X109.579 Y136.245 E8.78339
G1 X108.422 Y136.233 E8.82187
G1 X107.261 Y136.191 E8.86051
G1 X106.325 Y136.11 E8.89176
G1 X105.328 Y135.929 E8.92546
G1 X104.924 Y135.835 E8.93926
G1 X103.729 Y135.482 E8.9807
G1 X102.982 Y135.194 E9.00733
G1 X101.404 Y134.524 E9.06435
G1 X99.367 Y133.686 E9.13761
G1 X97.842 Y133.078 E9.19222
G1 X96.899 Y132.664 E9.22647
G1 X96.059 Y132.239 E9.25778
G1 X95.101 Y131.631 E9.29552
G1 X94.733 Y131.368 E9.31056
G1 X93.78 Y130.599 E9.35129
G1 X93.121 Y129.981 E9.38134
G1 X90.905 Y127.739 E9.48619
G1 X90.497 Y127.339 E9.50519
G1 X89.86 Y126.656 E9.53625
G1 X89.443 Y126.136 E9.55842
G1 X89.178 Y125.781 E9.57316
G1 X88.649 Y125.003 E9.60445
G1 X88.126 Y124.052 E9.64055
G1 X87.911 Y123.607 E9.65699
G1 X87.612 Y122.928 E9.68166
G1 X86.935 Y121.229 E9.74249
G1 X85.476 Y117.801 E9.8664
G1 X85.188 Y117.077 E9.89232
G1 X84.888 Y116.193 E9.92337
G1 X84.674 Y115.352 E9.95223
G1 X84.495 Y114.409 E9.98416
G1 X84.402 Y113.535 E10.01339
G1 X84.364 Y112.508 E10.04757
G1 X84.378 Y111.29 E10.08809
G1 X84.375 Y108.651 E10.17586
G1 X84.414 Y107.748 E10.20592
G1 X84.498 Y107.047 E10.2294
G1 X84.583 Y106.496 E10.24795
G1 X84.77 Y105.569 E10.2794
G1 X85.158 Y104.331 E10.32255
G1 X85.658 Y103.048 E10.36835
G1 X86.358 Y101.418 E10.42735
G1 X86.959 Y99.91 E10.48134
G1 X87.141 Y99.507 E10.49605
G1 X87.691 Y98.15 E10.54475
G1 X87.824 Y97.844 E10.55585
G1 X88.146 Y97.168 E10.58075
G1 X88.37 Y96.74 E10.59682
G1 X88.823 Y95.959 E10.62685
G1 X89.459 Y95.067 E10.66329
G1 X89.695 Y94.771 E10.67588
G1 X90.535 Y93.838 E10.71763
G1 X91.074 Y93.307 E10.7428
G1 X92.57 Y91.788 E10.81371
G0 F9000 X92.851 Y92.072
G1 F1800 X93.657 Y91.275 E10.85141
G1 X94.326 Y90.669 E10.88143
G1 X94.757 Y90.332 E10.89963
G1 X95.081 Y90.092 E10.91304
G1 X95.829 Y89.587 E10.94306
G1 X96.412 Y89.256 E10.96536
G1 X96.835 Y89.034 E10.98124
G1 X97.69 Y88.635 E11.01263
G1 X101.626 Y87.014 E11.15421
G1 X102.685 Y86.552 E11.19263
G1 X103.345 Y86.291 E11.21624
G1 X103.964 Y86.071 E11.23809
G1 X104.769 Y85.822 E11.26612
G1 X105.26 Y85.692 E11.28301
G1 X106.143 Y85.499 E11.31307
G1 X107.039 Y85.386 E11.34311
G1 X108.002 Y85.341 E11.37517
G1 X108.474 Y85.335 E11.39087
G1 X109.903 Y85.35 E11.4384
G1 X110.878 Y85.342 E11.47083
G1 X111.916 Y85.348 E11.50536
G1 X112.906 Y85.403 E11.53834
G1 X113.27 Y85.441 E11.55051
G1 X114.574 Y85.663 E11.5945
G1 X114.889 Y85.738 E11.60527
G1 X116.151 Y86.127 E11.6492
G1 X116.677 Y86.327 E11.66791
G1 X119.99 Y87.715 E11.78738
G1 X121.837 Y88.441 E11.85339
G1 X122.352 Y88.658 E11.87198
G1 X123.077 Y88.991 E11.89851
G1 X123.698 Y89.308 E11.9217
G1 X124.475 Y89.768 E11.95174
G1 X125.411 Y90.457 E11.99039
G1 X125.761 Y90.747 E12.00551
G1 X126.435 Y91.358 E12.03577
G1 X129.179 Y94.079 E12.1643
G1 X129.935 Y94.906 E12.20157
G1 X130.559 Y95.732 E12.236
G1 X131.035 Y96.494 E12.26588
G1 X131.282 Y96.931 E12.28257
G1 X131.834 Y98.068 E12.32461
G1 X133.258 Y101.528 E12.44906
G1 X134.073 Y103.409 E12.51724
G1 X134.338 Y104.069 E12.5409
G1 X134.559 Y104.687 E12.56273
G1 X134.646 Y104.957 E12.57216
G1 X134.893 Y105.865 E12.60346
G1 X134.955 Y106.143 E12.61293
G1 X135.145 Y107.303 E12.65203
G1 X135.173 Y107.571 E12.66099
G1 X135.228 Y108.668 E12.69752
G1 X135.218 Y111.41 E12.78872
G1 X135.23 Y112.449 E12.82328
G1 X135.161 Y113.759 E12.86691
G1 X135.13 Y114.022 E12.87572
G1 X134.932 Y115.151 E12.91384
G1 X134.827 Y115.6 E12.92918
G1 X134.544 Y116.585 E12.96327
G1 X134.326 Y117.196 E12.98484
G1 X134.021 Y117.966 E13.01239
G1 X133.184 Y119.906 E13.08266
G1 X132.047 Y122.731 E13.18395
G1 X131.707 Y123.491 E13.21164
G1 X131.411 Y124.066 E13.23315
G1 X131.249 Y124.358 E13.24426
G1 X130.595 Y125.388 E13.28484
G1 X130.284 Y125.818 E13.30249
G1 X129.723 Y126.525 E13.33251
G1 X129.305 Y126.978 E13.35301
G1 X128.853 Y127.438 E13.37446
G1 X127.357 Y128.917 E13.44443
G1 X126.571 Y129.723 E13.48187
G1 X125.912 Y130.341 E13.51192
G1 X125.188 Y130.909 E13.54252
G1 X124.603 Y131.326 E13.56642
G1 X123.845 Y131.817 E13.59646
G1 X123.046 Y132.239 E13.62651
G1 X122.503 Y132.477 E13.64623
G1 X119.509 Y133.687 E13.75364
G1 X117.948 Y134.355 E13.81011
G1 X117.056 Y134.747 E13.84252
G1 X116.397 Y135.009 E13.8661
G1 X115.87 Y135.198 E13.88472
G1 X115.008 Y135.465 E13.91474
G1 X114.125 Y135.655 E13.94478
G1 X113.599 Y135.729 E13.96245
G1 X113.115 Y135.785 E13.97865
G1 X111.783 Y135.852 E14.02301
G1 X110.984 Y135.839 E14.04959
G1 X109.583 Y135.845 E14.09619
G1 X108.436 Y135.833 E14.13434
G1 X107.295 Y135.792 E14.17231
G1 X106.396 Y135.716 E14.20232
G1 X105.418 Y135.539 E14.23538
G1 X105.037 Y135.451 E14.24838
G1 X103.842 Y135.098 E14.28983
G1 X103.138 Y134.826 E14.31493
G1 X101.556 Y134.154 E14.3721
G1 X99.515 Y133.314 E14.4455
G1 X98.003 Y132.712 E14.49963
G1 X97.079 Y132.307 E14.53319
G1 X96.273 Y131.901 E14.5632
G1 X95.333 Y131.305 E14.60022
G1 X94.984 Y131.056 E14.61448
G1 X94.054 Y130.307 E14.6542
G1 X93.395 Y129.689 E14.68425
G1 X91.185 Y127.453 E14.78881
G1 X90.789 Y127.066 E14.80723
G1 X90.172 Y126.406 E14.83728
G1 X89.763 Y125.896 E14.85902
G1 X89.508 Y125.556 E14.87316
G1 X88.999 Y124.81 E14.9032
G1 X88.486 Y123.878 E14.93858
G1 X88.277 Y123.446 E14.95454
G1 X87.984 Y122.78 E14.97874
G1 X87.307 Y121.081 E15.03957
G1 X85.848 Y117.653 E15.16348
G1 X85.567 Y116.948 E15.18873
G1 X85.276 Y116.094 E15.21873
G1 X85.062 Y115.253 E15.2476
G1 X84.893 Y114.366 E15.27763
G1 X84.802 Y113.52 E15.30593
G1 X84.764 Y112.513 E15.33945
G1 X84.778 Y111.295 E15.37996
G1 X84.775 Y108.668 E15.46733
G1 X84.814 Y107.765 E15.4974
G1 X84.893 Y107.108 E15.51941
G1 X84.975 Y106.574 E15.53738
G1 X85.152 Y105.688 E15.56743
G1 X85.531 Y104.476 E15.60966
G1 X86.026 Y103.206 E15.655
G1 X86.726 Y101.576 E15.714
G1 X87.324 Y100.075 E15.76774
G1 X87.506 Y99.672 E15.78245
G1 X88.058 Y98.309 E15.83136
G1 X88.185 Y98.016 E15.84198
G1 X88.501 Y97.353 E15.86641
G1 X88.716 Y96.941 E15.88186
G1 X89.169 Y96.16 E15.91189
G1 X89.772 Y95.316 E15.94639
G1 X89.992 Y95.039 E15.95816
G1 X90.832 Y94.106 E15.99991
G1 X91.359 Y93.588 E16.02449
G1 X92.851 Y92.072 E16.09524
G1 F2400 E15.29524
;MESH:Octopus-Octopus_Head_v6_HUGE_003.stl
G0 F9000 X100.465 Y104.607
G0 X110 Y121.785
;TYPE:WALL-INNER
G1 F2400 E16.09524
G1 F1800 X109.294 Y121.774 E16.11872
G1 X108.649 Y121.711 E16.14028
G1 X108.121 Y121.637 E16.15801
G1 X107.329 Y121.477 E16.18488
G1 X106.478 Y121.227 E16.21438
G1 X105.898 Y121.011 E16.23497
G1 X105.214 Y120.715 E16.25976
G1 X104.511 Y120.353 E16.28606
G1 X103.93 Y119.996 E16.30874
G1 X103.554 Y119.741 E16.32385
G1 X103.153 Y119.443 E16.34047
G1 X102.493 Y118.895 E16.369
G1 X102.028 Y118.441 E16.39061
G1 X101.748 Y118.138 E16.40433
G1 X101.272 Y117.57 E16.42898
G1 X100.928 Y117.114 E16.44798
G1 X100.677 Y116.74 E16.46296
G1 X100.477 Y116.416 E16.47563
G1 X100.17 Y115.871 E16.49643
G1 X99.92 Y115.365 E16.5152
G1 X99.657 Y114.749 E16.53748
G1 X99.504 Y114.336 E16.55213
G1 X99.363 Y113.896 E16.5675
G1 X99.186 Y113.278 E16.58888
G1 X99.032 Y112.468 E16.6163
G1 X98.958 Y111.869 E16.63638
G1 X98.916 Y111.351 E16.65366
G1 X98.904 Y110.917 E16.6681
G1 X98.904 Y110.379 E16.686
G1 X98.922 Y109.883 E16.7025
G1 X98.981 Y109.267 E16.72309
G1 X99.034 Y108.882 E16.73601
G1 X99.143 Y108.298 E16.75577
G1 X99.239 Y107.89 E16.76971
G1 X99.522 Y106.968 E16.80179
G1 X99.647 Y106.638 E16.81353
G1 X99.943 Y105.938 E16.8388
G1 X100.138 Y105.541 E16.85351
G1 X100.365 Y105.127 E16.86922
G1 X100.64 Y104.669 E16.88699
G1 X100.976 Y104.179 E16.90675
G1 X101.323 Y103.718 E16.92594
G1 X101.694 Y103.277 E16.94511
G1 X102.045 Y102.901 E16.96221
G1 X102.366 Y102.584 E16.97722
G1 X102.701 Y102.281 E16.99224
G1 X103.001 Y102.033 E17.00519
G1 X103.682 Y101.523 E17.03349
G1 X104.263 Y101.15 E17.05645
G1 X104.859 Y100.813 E17.07922
G1 X105.289 Y100.603 E17.09514
G1 X105.661 Y100.438 E17.10868
G1 X106.024 Y100.291 E17.1217
G1 X106.499 Y100.119 E17.1385
G1 X106.995 Y99.969 E17.15574
G1 X107.623 Y99.814 E17.17725
G1 X108.31 Y99.684 E17.20051
G1 X108.762 Y99.628 E17.21566
G1 X109.244 Y99.589 E17.23174
G1 X110.03 Y99.568 E17.25789
G1 X110.727 Y99.589 E17.28108
G1 X111.222 Y99.629 E17.2976
G1 X112.078 Y99.748 E17.32635
G1 X112.554 Y99.848 E17.34252
G1 X112.959 Y99.952 E17.35643
G1 X113.535 Y100.127 E17.37645
G1 X113.976 Y100.285 E17.39203
G1 X114.802 Y100.635 E17.42187
G1 X115.504 Y101.002 E17.44822
G1 X116.033 Y101.324 E17.46882
G1 X116.491 Y101.63 E17.48714
G1 X116.835 Y101.886 E17.5014
