;FLAVOR:Marlin
;TIME:3681
;Filament used: 1.98949m
;Layer height: 0.2
;MINX:54.477
;MINY:76.701
;MINZ:0.2
;MAXX:140.529
;MAXY:165.274
;MAXZ:9.6
;TARGET_MACHINE.NAME:Creality Ender-3 V3 SE
;Generated with Cura_SteamEngine 5.8.0
M82 ;absolute extrusion mode
M220 S100 ;Reset Feedrate
M221 S100 ;Reset Flowrate

G28 ;Home

M420 S1; Use saved mesh leveling data

G92 E0 ;Reset Extruder
G1 Z2.0 F3000 ;Move Z Axis up
G1 X-3 Y20 Z0.28 F5000.0 ;Move to start position
M190 S60 ; Set bed temperature and wait
M109 S200 ; Set hotend temperature and wait
G1 X-3 Y100.0 Z0.28 F1500.0 E15 ;Draw the first line
G1 X-2 Y100.0 Z0.28 F5000.0 ;Move to side a little
G1 X-2 Y20 Z0.28 F1500.0 E30 ;Draw the second line
G92 E0 ;Reset Extruder
G1 E-1.0000 F1800 ;Retract a bit
G1 Z2.0 F3000 ;Move Z Axis up
G1 E0.0000 F1800 

G92 E0
G92 E0
G1 F2400 E-0.8
;LAYER_COUNT:48
;LAYER:0
M107
G0 F9000 X59.562 Y79.441 Z0.2
;TYPE:SKIRT
G1 F2400 E0
G1 F1800 X60.291 Y78.908 E0.03004
G1 X61.24 Y78.339 E0.06684
G1 X61.796 Y78.044 E0.08777
G1 X62.677 Y77.627 E0.12019
G1 X63.591 Y77.29 E0.15259
G1 X64.531 Y77.035 E0.18499
G1 X65.456 Y76.868 E0.21625
G1 X66.052 Y76.789 E0.23625
G1 X67.038 Y76.704 E0.26916
G1 X67.909 Y76.701 E0.29813
G1 X68.783 Y76.738 E0.32723
G1 X72.785 Y77.021 E0.46067
G1 X75.316 Y77.128 E0.54492
G1 X77.815 Y77.163 E0.62805
G1 X80.32 Y77.126 E0.71137
G1 X82.833 Y77.019 E0.79503
G1 X86.691 Y76.724 E0.92373
G1 X87.902 Y76.701 E0.96401
G1 X88.783 Y76.738 E0.99334
G1 X92.785 Y77.021 E1.12678
G1 X95.316 Y77.128 E1.21103
G1 X97.815 Y77.163 E1.29416
G1 X100.32 Y77.126 E1.37749
G1 X102.833 Y77.019 E1.46114
G1 X106.692 Y76.724 E1.58987
G1 X107.904 Y76.701 E1.63019
G1 X108.783 Y76.738 E1.65945
G1 X112.785 Y77.021 E1.79289
G1 X115.316 Y77.128 E1.87715
G1 X117.815 Y77.163 E1.96027
G1 X120.32 Y77.126 E2.0436
G1 X122.833 Y77.019 E2.12725
G1 X126.692 Y76.724 E2.25598
G1 X127.904 Y76.701 E2.2963
G1 X128.789 Y76.739 E2.32576
G1 X129.752 Y76.802 E2.35786
G1 X130.451 Y76.861 E2.38119
G1 X131.418 Y76.987 E2.41362
G1 X132.334 Y77.189 E2.44482
G1 X133.297 Y77.494 E2.47842
G1 X134.195 Y77.869 E2.51079
G1 X135.058 Y78.323 E2.54322
G1 X135.875 Y78.851 E2.57558
G1 X136.643 Y79.448 E2.60793
G1 X137.306 Y80.061 E2.63796
G1 X138.007 Y80.838 E2.67277
G1 X138.59 Y81.616 E2.7051
G1 X139.105 Y82.445 E2.73756
G1 X139.542 Y83.314 E2.76992
G1 X139.901 Y84.22 E2.80233
G1 X140.179 Y85.152 E2.83468
G1 X140.362 Y86.037 E2.86473
G1 X140.482 Y87.06 E2.89899
G1 X140.506 Y87.615 E2.91747
G1 X140.52 Y88.434 E2.94471
G1 X140.529 Y92.051 E3.06502
G1 X140.521 Y93.669 E3.11883
G1 X140.506 Y94.486 E3.14601
G1 X140.445 Y95.784 E3.18923
G1 X140.382 Y96.805 E3.22325
G1 X140.298 Y99.323 E3.30705
G1 X140.285 Y101.878 E3.39203
G1 X140.342 Y104.366 E3.4748
G1 X140.496 Y107.303 E3.57262
G1 X140.52 Y108.345 E3.60729
G1 X140.529 Y112.045 E3.73035
G1 X140.521 Y113.669 E3.78436
G1 X140.506 Y114.486 E3.81154
G1 X140.445 Y115.784 E3.85476
G1 X140.382 Y116.805 E3.88879
G1 X140.298 Y119.323 E3.97258
G1 X140.285 Y121.878 E4.05756
G1 X140.342 Y124.366 E4.14033
G1 X140.496 Y127.303 E4.23815
G1 X140.52 Y128.345 E4.27282
G1 X140.529 Y132.051 E4.39608
G1 X140.521 Y133.669 E4.4499
G1 X140.506 Y134.485 E4.47704
G1 X140.445 Y135.792 E4.52056
G1 X140.382 Y136.814 E4.55462
G1 X140.298 Y139.316 E4.63788
G1 X140.285 Y141.864 E4.72263
G1 X140.343 Y144.341 E4.80504
G1 X140.51 Y147.714 E4.91736
G1 X140.52 Y148.425 E4.94101
G1 X140.529 Y152.031 E5.06095
G1 X140.519 Y153.799 E5.11975
G1 X140.503 Y154.517 E5.14364
G1 X140.436 Y155.489 E5.17604
G1 X140.284 Y156.45 E5.20841
G1 X140.048 Y157.395 E5.2408
G1 X139.729 Y158.315 E5.27319
G1 X139.33 Y159.203 E5.30557
G1 X138.854 Y160.052 E5.33794
G1 X138.304 Y160.858 E5.37039
G1 X137.686 Y161.61 E5.40277
G1 X137.005 Y162.304 E5.43511
G1 X136.32 Y162.892 E5.46513
G1 X135.468 Y163.499 E5.49993
G1 X134.627 Y163.99 E5.53232
G1 X133.779 Y164.391 E5.56352
G1 X132.831 Y164.74 E5.59712
G1 X131.892 Y164.993 E5.62946
G1 X131.003 Y165.153 E5.6595
G1 X130.061 Y165.241 E5.69097
G1 X129.739 Y165.257 E5.7017
G1 X128.381 Y165.239 E5.74687
G1 X127.527 Y165.172 E5.77536
G1 X126.207 Y165.051 E5.81945
G1 X123.674 Y164.891 E5.90386
G1 X121.141 Y164.802 E5.98816
G1 X118.647 Y164.785 E6.07111
G1 X116.107 Y164.84 E6.15561
G1 X113.606 Y164.965 E6.2389
G1 X110.137 Y165.24 E6.35464
G1 X109.135 Y165.274 E6.38799
G1 X108.456 Y165.244 E6.41059
G1 X107.527 Y165.172 E6.44159
G1 X106.207 Y165.051 E6.48567
G1 X103.674 Y164.891 E6.57009
G1 X101.141 Y164.802 E6.65439
G1 X98.647 Y164.785 E6.73734
G1 X96.107 Y164.84 E6.82184
G1 X93.606 Y164.965 E6.90513
G1 X90.101 Y165.242 E7.02207
G1 X89.135 Y165.274 E7.05422
G1 X88.456 Y165.244 E7.07682
G1 X87.527 Y165.172 E7.10781
G1 X86.207 Y165.051 E7.1519
G1 X83.674 Y164.891 E7.23632
G1 X81.141 Y164.802 E7.32062
G1 X78.647 Y164.785 E7.40357
G1 X76.107 Y164.84 E7.48807
G1 X73.606 Y164.965 E7.57136
G1 X70.256 Y165.229 E7.68312
G1 X69.588 Y165.263 E7.70537
G1 X68.614 Y165.254 E7.73777
G1 X67.645 Y165.159 E7.77015
G1 X66.687 Y164.979 E7.80257
G1 X65.751 Y164.714 E7.83493
G1 X64.84 Y164.368 E7.86734
G1 X63.964 Y163.944 E7.89971
G1 X63.188 Y163.482 E7.92975
G1 X62.344 Y162.871 E7.9644
G1 X61.655 Y162.276 E7.99468
G1 X61.087 Y161.74 E8.02066
G1 X59.124 Y159.94 E8.10924
G1 X58.181 Y159.108 E8.15107
G1 X57.481 Y158.43 E8.18348
G1 X56.844 Y157.694 E8.21585
G1 X56.314 Y156.963 E8.24588
G1 X55.779 Y156.066 E8.28062
G1 X55.358 Y155.188 E8.31301
G1 X55.016 Y154.275 E8.34543
G1 X54.757 Y153.337 E8.3778
G1 X54.581 Y152.378 E8.41023
G1 X54.491 Y151.41 E8.44256
G1 X54.484 Y150.506 E8.47263
G1 X54.521 Y149.905 E8.49266
G1 X54.607 Y148.924 E8.52541
G1 X54.8 Y146.383 E8.61017
G1 X54.921 Y143.864 E8.69405
G1 X54.97 Y141.356 E8.77748
G1 X54.948 Y138.805 E8.86233
G1 X54.855 Y136.306 E8.94551
G1 X54.69 Y133.774 E9.0299
G1 X54.517 Y131.83 E9.09481
G1 X54.477 Y130.858 E9.12717
G1 X54.516 Y129.959 E9.1571
G1 X54.605 Y128.932 E9.19138
G1 X54.802 Y126.361 E9.27715
G1 X54.921 Y123.866 E9.36022
G1 X54.971 Y121.35 E9.44392
G1 X54.948 Y118.81 E9.52841
G1 X54.854 Y116.29 E9.61228
G1 X54.69 Y113.771 E9.69624
G1 X54.524 Y111.903 E9.75862
G1 X54.484 Y111.001 E9.78865
G1 X54.5 Y110.38 E9.80931
G1 X54.553 Y109.523 E9.83787
G1 X54.612 Y108.861 E9.85997
G1 X54.805 Y106.302 E9.94533
G1 X54.924 Y103.757 E10.03007
G1 X54.971 Y101.281 E10.11243
G1 X54.946 Y98.736 E10.19708
G1 X54.852 Y96.254 E10.27969
G1 X54.567 Y92.362 E10.40949
G1 X54.521 Y91.867 E10.42602
G1 X54.477 Y90.893 E10.45845
G1 X54.519 Y89.921 E10.49081
G1 X54.661 Y88.378 E10.54235
G1 X54.793 Y87.424 E10.57438
G1 X54.937 Y86.754 E10.59717
G1 X55.074 Y86.21 E10.61583
G1 X55.353 Y85.277 E10.64822
G1 X55.697 Y84.41 E10.67925
G1 X56.002 Y83.784 E10.70241
G1 X56.262 Y83.288 E10.72103
G1 X56.717 Y82.508 E10.75107
G1 X57.326 Y81.653 E10.78598
G1 X58.032 Y80.836 E10.82189
G1 X58.248 Y80.611 E10.83227
G1 X59.303 Y79.648 E10.87978
G1 X59.562 Y79.441 E10.8908
G0 F9000 X59.798 Y79.764
G1 F1800 X60.527 Y79.231 E10.92084
G1 X61.428 Y78.692 E10.95576
G1 X61.968 Y78.405 E10.9761
G1 X62.816 Y78.002 E11.00733
G1 X63.696 Y77.676 E11.03854
G1 X64.602 Y77.429 E11.06977
G1 X65.509 Y77.265 E11.10043
G1 X66.105 Y77.186 E11.12043
G1 X67.039 Y77.104 E11.15161
G1 X67.892 Y77.101 E11.17998
G1 X68.755 Y77.137 E11.20871
G1 X72.768 Y77.421 E11.34252
G1 X75.299 Y77.528 E11.42677
G1 X77.815 Y77.563 E11.51047
G1 X80.337 Y77.526 E11.59436
G1 X82.852 Y77.419 E11.67808
G1 X86.699 Y77.124 E11.80641
G1 X87.885 Y77.101 E11.84586
G1 X88.755 Y77.137 E11.87482
G1 X92.768 Y77.421 E12.00863
G1 X95.299 Y77.528 E12.09289
G1 X97.815 Y77.563 E12.17658
G1 X100.337 Y77.526 E12.26047
G1 X102.852 Y77.419 E12.34419
G1 X106.7 Y77.124 E12.47255
G1 X107.887 Y77.101 E12.51204
G1 X108.755 Y77.137 E12.54094
G1 X112.768 Y77.421 E12.67474
G1 X115.299 Y77.528 E12.759
G1 X117.815 Y77.563 E12.84269
G1 X120.337 Y77.526 E12.92658
G1 X122.852 Y77.419 E13.01031
G1 X126.7 Y77.124 E13.13867
G1 X127.887 Y77.101 E13.17815
G1 X128.763 Y77.138 E13.20732
G1 X129.719 Y77.201 E13.23918
G1 X130.4 Y77.258 E13.26191
G1 X131.332 Y77.378 E13.29316
G1 X132.248 Y77.58 E13.32436
G1 X133.143 Y77.863 E13.35558
G1 X134.009 Y78.223 E13.38678
G1 X134.841 Y78.659 E13.41802
G1 X135.63 Y79.167 E13.44923
G1 X136.371 Y79.742 E13.48043
G1 X137.034 Y80.355 E13.51046
G1 X137.687 Y81.078 E13.54286
G1 X138.251 Y81.828 E13.57407
G1 X138.748 Y82.625 E13.60531
G1 X139.17 Y83.462 E13.63649
G1 X139.518 Y84.335 E13.66775
G1 X139.787 Y85.233 E13.69893
G1 X139.97 Y86.118 E13.72898
G1 X140.082 Y87.078 E13.76113
G1 X140.106 Y87.622 E13.77924
G1 X140.12 Y88.435 E13.80629
G1 X140.129 Y92.049 E13.92649
G1 X140.121 Y93.662 E13.98014
G1 X140.106 Y94.467 E14.00692
G1 X140.046 Y95.759 E14.04994
G1 X139.982 Y96.792 E14.08436
G1 X139.898 Y99.31 E14.16815
G1 X139.885 Y101.876 E14.2535
G1 X139.942 Y104.375 E14.33664
G1 X140.096 Y107.312 E14.43446
G1 X140.12 Y108.346 E14.46886
G1 X140.129 Y112.043 E14.59182
G1 X140.121 Y113.662 E14.64567
G1 X140.106 Y114.467 E14.67245
G1 X140.046 Y115.759 E14.71547
G1 X139.982 Y116.792 E14.74989
G1 X139.898 Y119.31 E14.83369
G1 X139.885 Y121.876 E14.91903
G1 X139.942 Y124.375 E15.00217
G1 X140.096 Y127.312 E15.09999
G1 X140.12 Y128.346 E15.13439
G1 X140.129 Y132.049 E15.25756
G1 X140.121 Y133.662 E15.3112
G1 X140.106 Y134.467 E15.33798
G1 X140.046 Y135.767 E15.38127
G1 X139.982 Y136.801 E15.41572
G1 X139.898 Y139.303 E15.49899
G1 X139.885 Y141.862 E15.5841
G1 X139.943 Y144.361 E15.66724
G1 X140.11 Y147.72 E15.7791
G1 X140.12 Y148.426 E15.80258
G1 X140.129 Y152.029 E15.92242
G1 X140.119 Y153.79 E15.98099
G1 X140.104 Y154.49 E16.00428
G1 X140.041 Y155.427 E16.03552
G1 X139.896 Y156.354 E16.06672
G1 X139.67 Y157.265 E16.09794
G1 X139.364 Y158.152 E16.12915
G1 X138.981 Y159.008 E16.16034
G1 X138.523 Y159.827 E16.19155
G1 X137.995 Y160.604 E16.22279
G1 X137.4 Y161.33 E16.25402
G1 X136.744 Y162 E16.2852
G1 X136.059 Y162.588 E16.31523
G1 X135.266 Y163.154 E16.34763
G1 X134.456 Y163.628 E16.37885
G1 X133.608 Y164.029 E16.41005
G1 X132.727 Y164.354 E16.44128
G1 X131.821 Y164.599 E16.47249
G1 X130.932 Y164.759 E16.50254
G1 X130.041 Y164.841 E16.5323
G1 X129.719 Y164.857 E16.54302
G1 X128.412 Y164.84 E16.5865
G1 X127.564 Y164.774 E16.61479
G1 X126.236 Y164.652 E16.65914
G1 X123.688 Y164.491 E16.74406
G1 X121.155 Y164.402 E16.82836
G1 X118.641 Y164.385 E16.91197
G1 X116.087 Y164.44 E16.99694
G1 X113.586 Y164.565 E17.08023
G1 X110.105 Y164.841 E17.19637
G1 X109.153 Y164.874 E17.22805
G1 X108.474 Y164.844 E17.25066
G1 X107.564 Y164.774 E17.28101
G1 X106.236 Y164.652 E17.32537
G1 X103.688 Y164.491 E17.41029
G1 X101.155 Y164.402 E17.49459
G1 X98.641 Y164.385 E17.5782
G1 X96.087 Y164.44 E17.66317
G1 X93.586 Y164.565 E17.74646
G1 X90.087 Y164.842 E17.8632
G1 X89.153 Y164.874 E17.89428
G1 X88.474 Y164.844 E17.91689
G1 X87.564 Y164.774 E17.94724
G1 X86.236 Y164.652 E17.9916
G1 X83.688 Y164.491 E18.07651
G1 X81.155 Y164.402 E18.16081
G1 X78.641 Y164.385 E18.24443
G1 X76.087 Y164.44 E18.3294
G1 X73.586 Y164.565 E18.41269
G1 X70.236 Y164.83 E18.52446
G1 X69.591 Y164.863 E18.54594
G1 X68.652 Y164.856 E18.57717
G1 X67.718 Y164.766 E18.60838
G1 X66.795 Y164.594 E18.6396
G1 X65.892 Y164.34 E18.6708
G1 X65.014 Y164.008 E18.70202
G1 X64.169 Y163.6 E18.73323
G1 X63.393 Y163.138 E18.76327
G1 X62.605 Y162.568 E18.79562
G1 X61.93 Y161.985 E18.82528
G1 X61.362 Y161.449 E18.85126
G1 X59.389 Y159.64 E18.94029
G1 X58.459 Y158.82 E18.98153
G1 X57.783 Y158.168 E19.01277
G1 X57.168 Y157.459 E19.04398
G1 X56.638 Y156.728 E19.07401
G1 X56.139 Y155.892 E19.1064
G1 X55.732 Y155.047 E19.13759
G1 X55.401 Y154.168 E19.16883
G1 X55.15 Y153.264 E19.20004
G1 X54.979 Y152.34 E19.23129
G1 X54.891 Y151.407 E19.26246
G1 X54.884 Y150.503 E19.29253
G1 X54.919 Y149.94 E19.31129
G1 X55.006 Y148.954 E19.34421
G1 X55.199 Y146.413 E19.42897
G1 X55.321 Y143.883 E19.51321
G1 X55.37 Y141.364 E19.59701
G1 X55.348 Y138.802 E19.68223
G1 X55.255 Y136.291 E19.7658
G1 X55.089 Y133.748 E19.85056
G1 X54.917 Y131.813 E19.91517
G1 X54.877 Y130.875 E19.9464
G1 X54.915 Y129.994 E19.97573
G1 X55.004 Y128.967 E20.01002
G1 X55.201 Y126.392 E20.09591
G1 X55.321 Y123.885 E20.17939
G1 X55.371 Y121.358 E20.26345
G1 X55.348 Y118.806 E20.34834
G1 X55.254 Y116.275 E20.43258
G1 X55.089 Y113.745 E20.5169
G1 X54.924 Y111.885 E20.57901
G1 X54.884 Y110.983 E20.60904
G1 X54.899 Y110.405 E20.62827
G1 X54.951 Y109.559 E20.65646
G1 X55.011 Y108.891 E20.67877
G1 X55.204 Y106.332 E20.76412
G1 X55.324 Y103.776 E20.84923
G1 X55.371 Y101.289 E20.93196
G1 X55.346 Y98.732 E21.01701
G1 X55.252 Y96.239 E21.09999
G1 X54.966 Y92.333 E21.23025
G1 X54.921 Y91.848 E21.24645
G1 X54.877 Y90.91 E21.27769
G1 X54.919 Y89.938 E21.31004
G1 X55.057 Y88.432 E21.36034
G1 X55.184 Y87.508 E21.39137
G1 X55.325 Y86.851 E21.41371
G1 X55.457 Y86.324 E21.43178
G1 X55.725 Y85.425 E21.46299
G1 X56.069 Y84.558 E21.49401
G1 X56.356 Y83.97 E21.51577
G1 X56.608 Y83.49 E21.5338
G1 X57.063 Y82.71 E21.56384
G1 X57.629 Y81.914 E21.59632
G1 X58.321 Y81.113 E21.63153
G1 X58.537 Y80.888 E21.6419
G1 X59.553 Y79.96 E21.68767
G1 X59.798 Y79.764 E21.6981
G0 F9000 X60.034 Y80.087
G1 F1800 X60.763 Y79.554 E21.72814
G1 X61.616 Y79.045 E21.76118
G1 X62.14 Y78.766 E21.78092
G1 X62.955 Y78.377 E21.81096
G1 X63.802 Y78.062 E21.84102
G1 X64.673 Y77.823 E21.87106
G1 X65.58 Y77.659 E21.90171
G1 X66.14 Y77.584 E21.92051
G1 X67.04 Y77.504 E21.95056
G1 X67.876 Y77.501 E21.97836
G1 X68.727 Y77.536 E22.00669
G1 X72.751 Y77.821 E22.14087
G1 X75.282 Y77.928 E22.22512
G1 X77.815 Y77.963 E22.30938
G1 X80.354 Y77.926 E22.39383
G1 X82.871 Y77.819 E22.47763
G1 X86.707 Y77.524 E22.60559
G1 X87.869 Y77.501 E22.64424
G1 X88.727 Y77.536 E22.6728
G1 X92.751 Y77.821 E22.80698
G1 X95.282 Y77.928 E22.89124
G1 X97.815 Y77.963 E22.97549
G1 X100.354 Y77.926 E23.05995
G1 X102.871 Y77.819 E23.14374
G1 X106.708 Y77.524 E23.27174
G1 X107.871 Y77.501 E23.31042
G1 X108.727 Y77.536 E23.33892
G1 X112.751 Y77.821 E23.47309
G1 X115.282 Y77.928 E23.55735
G1 X117.815 Y77.963 E23.64161
G1 X120.354 Y77.926 E23.72606
G1 X122.871 Y77.819 E23.80985
G1 X126.708 Y77.524 E23.93785
G1 X127.87 Y77.501 E23.9765
G1 X128.737 Y77.537 E24.00537
G1 X129.686 Y77.6 E24.037
G1 X130.35 Y77.655 E24.05916
G1 X131.246 Y77.769 E24.0892
G1 X132.128 Y77.962 E24.11923
G1 X132.99 Y78.233 E24.14928
G1 X133.824 Y78.578 E24.1793
G1 X134.625 Y78.996 E24.20935
G1 X135.385 Y79.483 E24.23938
G1 X136.099 Y80.036 E24.26941
G1 X136.762 Y80.649 E24.29945
G1 X137.368 Y81.319 E24.32949
G1 X137.912 Y82.04 E24.35953
G1 X138.391 Y82.806 E24.38958
G1 X138.799 Y83.611 E24.4196
G1 X139.135 Y84.45 E24.44966
G1 X139.395 Y85.314 E24.47967
G1 X139.578 Y86.199 E24.50973
G1 X139.682 Y87.096 E24.53976
G1 X139.706 Y87.629 E24.55751
G1 X139.72 Y88.436 E24.58435
G1 X139.729 Y92.047 E24.70445
G1 X139.721 Y93.654 E24.7579
G1 X139.706 Y94.449 E24.78435
G1 X139.647 Y95.734 E24.82713
G1 X139.582 Y96.779 E24.86196
G1 X139.498 Y99.297 E24.94575
G1 X139.485 Y101.874 E25.03147
G1 X139.542 Y104.384 E25.11497
G1 X139.696 Y107.321 E25.21279
G1 X139.72 Y108.347 E25.24692
G1 X139.729 Y112.041 E25.36979
G1 X139.721 Y113.654 E25.42344
G1 X139.706 Y114.449 E25.44988
G1 X139.647 Y115.734 E25.49267
G1 X139.582 Y116.779 E25.52749
G1 X139.498 Y119.297 E25.61129
G1 X139.485 Y121.874 E25.697
G1 X139.542 Y124.384 E25.7805
G1 X139.696 Y127.321 E25.87832
G1 X139.72 Y128.347 E25.91246
G1 X139.729 Y132.047 E26.03552
G1 X139.721 Y133.654 E26.08897
G1 X139.706 Y134.449 E26.11542
G1 X139.647 Y135.742 E26.15847
G1 X139.582 Y136.788 E26.19332
G1 X139.498 Y139.29 E26.27659
G1 X139.485 Y141.86 E26.36207
G1 X139.543 Y144.381 E26.44594
G1 X139.71 Y147.726 E26.55733
G1 X139.72 Y148.427 E26.58065
G1 X139.729 Y152.027 E26.70039
G1 X139.719 Y153.782 E26.75876
G1 X139.705 Y154.464 E26.78145
G1 X139.646 Y155.366 E26.81151
G1 X139.508 Y156.258 E26.84153
G1 X139.292 Y157.135 E26.87157
G1 X138.999 Y157.989 E26.9016
G1 X138.631 Y158.814 E26.93165
G1 X138.192 Y159.603 E26.96168
G1 X137.685 Y160.351 E26.99174
G1 X137.114 Y161.05 E27.02176
G1 X136.483 Y161.696 E27.05179
G1 X135.798 Y162.284 E27.08182
G1 X135.063 Y162.809 E27.11186
G1 X134.284 Y163.267 E27.14191
G1 X133.469 Y163.654 E27.17192
G1 X132.622 Y163.968 E27.20197
